; generated by PrusaSlicer 2.2.0+ on 2020-08-04 at 20:51:34 UTC

; 

; external perimeters extrusion width = 0.45mm
; perimeters extrusion width = 0.45mm
; infill extrusion width = 0.45mm
; solid infill extrusion width = 0.45mm
; top infill extrusion width = 0.40mm
; first layer extrusion width = 0.42mm

M73 P0 R86
M73 Q0 S86
M201 X1000 Y1000 Z200 E5000 ; sets maximum accelerations, mm/sec^2
M203 X200 Y200 Z12 E120 ; sets maximum feedrates, mm/sec
M204 P1250 R1250 T1250 ; sets acceleration (P, T) and retract acceleration (R), mm/sec^2
M205 X8.00 Y8.00 Z0.40 E4.50 ; sets the jerk limits, mm/sec
M205 S0 T0 ; sets the minimum extruding and travel feed rate, mm/sec
M107
M862.3 P "MK3S" ; printer model check
M862.1 P0.4 ; nozzle diameter check
M115 U3.9.0 ; tell printer latest fw version
G90 ; use absolute coordinates
M83 ; extruder relative mode
M104 S215 ; set extruder temp
M140 S60 ; set bed temp
M190 S60 ; wait for bed temp
M109 S215 ; wait for extruder temp
G28 W ; home all without mesh bed level
G80 ; mesh bed leveling
G1 Y-3.0 F1000.0 ; go outside print area
G92 E0.0
G1 X60.0 E9.0 F1000.0 ; intro line
M73 Q0 S86
M73 P0 R86
G1 X100.0 E12.5 F1000.0 ; intro line
G92 E0.0
M221 S100

; Don't change E values below. Excessive value can damage the printer.
M907 E430 ; set extruder motor current
G21 ; set units to millimeters
G90 ; use absolute coordinates
M83 ; use relative distances for extrusion
M900 K0.06 ; Filament gcode LA 1.5
M900 K30 ; Filament gcode LA 1.0
;BEFORE_LAYER_CHANGE
G92 E0.0
;0.2


G1 E-0.80000 F2100.00000
G1 Z0.600 F10800.000
;AFTER_LAYER_CHANGE
;0.2
G1 X79.430 Y95.943
G1 Z0.200
G1 E0.80000 F2100.00000
M204 S500
G1 F1200.000
G1 X79.169 Y94.944 E0.03238
G1 X79.176 Y94.250 E0.02178
G1 X79.286 Y93.729 E0.01668
G1 X79.756 Y92.908 E0.02966
G1 X80.299 Y92.383 E0.02368
G1 X80.715 Y92.102 E0.01574
G1 X81.852 Y91.737 E0.03745
G1 X83.143 Y91.684 E0.04051
G1 X165.318 Y92.052 E2.57657
G1 X166.166 Y92.147 E0.02676
G1 X167.234 Y92.588 E0.03624
G1 X168.837 Y93.717 E0.06146
G1 X169.551 Y94.592 E0.03542
G1 X170.623 Y96.507 E0.06882
G1 X170.822 Y97.034 E0.01763
G1 X170.892 Y97.605 E0.01805
G1 X170.892 Y110.447 E0.40266
G1 X170.836 Y110.946 E0.01574
G1 X170.622 Y111.535 E0.01965
G1 X170.264 Y112.045 E0.01953
G1 X169.786 Y112.444 E0.01953
G1 X169.217 Y112.707 E0.01965
G1 X148.051 Y117.982 E0.68394
G1 X146.439 Y118.206 E0.05104
G1 X145.571 Y118.175 E0.02724
G1 X140.850 Y117.783 E0.14853
G1 X138.667 Y117.369 E0.06967
G1 X134.405 Y116.375 E0.13721
G1 X130.349 Y115.286 E0.13167
G1 X128.639 Y114.751 E0.05619
G1 X82.548 Y98.260 E1.53488
G1 X81.167 Y97.636 E0.04749
G1 X80.673 Y97.330 E0.01823
G1 X79.957 Y96.660 E0.03074
G1 X79.465 Y95.992 E0.02602
M204 S1000
G1 F8640.000
G1 X79.169 Y94.944 E-0.25140
G1 X79.176 Y94.250 E-0.16037
G1 X79.286 Y93.729 E-0.12287
G1 X79.756 Y92.908 E-0.21841
G1 X79.778 Y92.887 E-0.00696
G1 E-0.04000 F2100.00000
G1 Z0.800 F10800.000
G1 X85.740 Y95.523
G1 Z0.200
G1 E0.80000 F2100.00000
M204 S500
G1 F1200.000
G1 X86.001 Y95.557 E0.00827
G1 X87.857 Y95.940 E0.05942
G1 X95.064 Y97.579 E0.23173
G1 X95.436 Y97.620 E0.01174
G1 X96.785 Y97.854 E0.04291
G1 X99.697 Y98.390 E0.09285
G1 X101.869 Y98.827 E0.06946
G1 X104.403 Y99.389 E0.08140
G1 X109.164 Y100.263 E0.15176
G1 X116.906 Y101.505 E0.24585
G1 X120.365 Y101.980 E0.10947
G1 X126.842 Y102.735 E0.20445
G1 X129.553 Y102.942 E0.08526
G1 X131.360 Y103.048 E0.05674
G1 X132.813 Y103.056 E0.04558
G1 X142.146 Y103.298 E0.29273
G1 X143.735 Y103.290 E0.04982
G1 X144.869 Y103.192 E0.03568
G1 X145.894 Y103.276 E0.03226
G1 X145.977 Y103.336 E0.00318
G1 X146.731 Y103.287 E0.02369
G1 X147.420 Y103.293 E0.02162
G1 X147.589 Y103.274 E0.00532
G1 X147.988 Y103.309 E0.01257
G1 X148.428 Y103.413 E0.01418
G1 X149.743 Y103.929 E0.04430
G1 X150.572 Y102.999 E0.03907
G1 X151.026 Y103.012 E0.01424
G1 X151.261 Y103.109 E0.00796
G1 X151.604 Y103.284 E0.01207
G1 X152.652 Y103.931 E0.03860
G1 X153.208 Y104.163 E0.01889
G1 X153.753 Y104.302 E0.01766
G1 X154.239 Y104.124 E0.01622
G1 X154.707 Y103.861 E0.01683
G1 X155.065 Y103.557 E0.01471
G1 X155.455 Y103.027 E0.02066
G1 X155.647 Y102.525 E0.01683
G1 X155.693 Y102.288 E0.00759
G1 X155.771 Y101.587 E0.02211
G1 X155.960 Y101.103 E0.01629
G1 X156.419 Y100.438 E0.02533
G1 X156.493 Y100.451 E0.00234
G1 X156.971 Y100.707 E0.01700
G1 X157.684 Y101.192 E0.02705
G1 X158.593 Y102.025 E0.03867
G1 X158.783 Y102.262 E0.00951
G1 X159.378 Y102.604 E0.02153
G1 X160.352 Y102.914 E0.03202
G1 X161.199 Y103.126 E0.02739
G1 X163.341 Y101.405 E0.08615
G1 X163.634 Y100.506 E0.02964
G1 X163.704 Y99.863 E0.02028
G1 X163.832 Y99.238 E0.02000
G1 X164.033 Y98.439 E0.02582
G1 X164.299 Y97.883 E0.01934
G1 X164.855 Y96.817 E0.03770
G1 X165.289 Y96.140 E0.02520
G1 X165.519 Y95.722 E0.01497
G1 X165.703 Y95.803 E0.00632
G1 X166.333 Y96.231 E0.02387
G1 X166.537 Y96.467 E0.00978
G1 X167.290 Y97.999 E0.05351
G1 X167.350 Y98.070 E0.00293
G1 X167.350 Y109.546 E0.35983
G1 X167.143 Y109.605 E0.00676
G1 X166.756 Y109.643 E0.01218
G1 X164.840 Y109.946 E0.06083
G1 X163.394 Y110.091 E0.04556
G1 X163.138 Y110.028 E0.00826
G1 X162.904 Y110.143 E0.00818
G1 X161.027 Y110.418 E0.05948
G1 X160.161 Y110.425 E0.02715
G1 X156.651 Y110.768 E0.11057
G1 X156.224 Y110.859 E0.01370
G1 X155.676 Y110.895 E0.01722
G1 X155.135 Y111.221 E0.01980
G1 X154.960 Y111.392 E0.00768
G1 X154.770 Y111.529 E0.00734
G1 X154.301 Y112.059 E0.02219
G1 X154.144 Y112.295 E0.00890
G1 X154.062 Y112.346 E0.00303
G1 X153.751 Y112.429 E0.01007
G1 X153.218 Y112.344 E0.01694
G1 X152.713 Y112.314 E0.01587
G1 X152.190 Y112.416 E0.01669
G1 X151.589 Y112.608 E0.01978
G1 X151.318 Y112.659 E0.00866
G1 X151.160 Y112.657 E0.00495
G1 X150.728 Y112.558 E0.01387
G1 X149.291 Y111.558 E0.05491
G1 X148.517 Y112.796 E0.04579
G1 X148.286 Y113.510 E0.02353
G1 X148.124 Y113.806 E0.01058
G1 X147.990 Y114.153 E0.01165
G1 X147.866 Y114.309 E0.00625
G1 X147.757 Y114.376 E0.00401
G1 X147.337 Y114.509 E0.01381
G1 X146.292 Y114.642 E0.03304
G1 X145.530 Y114.616 E0.02390
G1 X142.796 Y114.410 E0.08599
G1 X141.292 Y114.269 E0.04736
G1 X139.421 Y113.908 E0.05974
G1 X136.982 Y113.318 E0.07868
G1 X135.280 Y112.943 E0.05463
G1 X131.278 Y111.867 E0.12996
G1 X129.777 Y111.397 E0.04930
G1 X122.946 Y109.002 E0.22697
G1 X120.643 Y108.129 E0.07721
G1 X116.440 Y106.603 E0.14020
G1 X113.637 Y105.558 E0.09380
G1 X111.575 Y104.694 E0.07011
G1 X111.243 Y104.510 E0.01188
G1 X110.399 Y104.199 E0.02822
G1 X106.876 Y102.811 E0.11871
G1 X106.783 Y102.794 E0.00297
G1 X105.506 Y102.320 E0.04270
G1 X104.053 Y101.832 E0.04805
G1 X102.630 Y101.404 E0.04659
G1 X101.786 Y101.103 E0.02811
G1 X100.087 Y100.626 E0.05531
G1 X98.300 Y100.018 E0.05919
G1 X96.805 Y99.419 E0.05050
G1 X96.084 Y99.176 E0.02387
G1 X94.027 Y98.410 E0.06881
G1 X91.299 Y97.347 E0.09180
G1 X87.740 Y96.134 E0.11789
G1 X86.594 Y95.813 E0.03732
G1 X85.797 Y95.540 E0.02641
M204 S1000
G1 F8640.000
G1 X86.001 Y95.557 E-0.04730
G1 X87.857 Y95.940 E-0.43758
G1 X89.019 Y96.204 E-0.27512
G1 E-0.04000 F2100.00000
G1 Z0.800 F10800.000
G1 X149.637 Y103.482
G1 Z0.200
G1 E0.80000 F2100.00000
M204 S500
G1 F1200.000
G1 X150.408 Y102.617 E0.03634
G1 X151.055 Y102.636 E0.02029
G1 X151.119 Y102.643 E0.00201
G1 X151.419 Y102.766 E0.01019
G1 X151.789 Y102.956 E0.01303
G1 X152.824 Y103.594 E0.03813
G1 X153.327 Y103.804 E0.01710
G1 X153.733 Y103.907 E0.01313
G1 X154.081 Y103.780 E0.01162
G1 X154.491 Y103.550 E0.01473
G1 X154.787 Y103.299 E0.01218
G1 X155.121 Y102.844 E0.01768
G1 X155.283 Y102.421 E0.01421
G1 X155.320 Y102.231 E0.00608
G1 X155.402 Y101.496 E0.02318
G1 X155.620 Y100.939 E0.01874
G1 X156.089 Y100.255 E0.02601
G1 X156.230 Y99.993 E0.00933
G1 X156.617 Y100.090 E0.01252
G1 X157.166 Y100.384 E0.01953
G1 X157.918 Y100.896 E0.02852
G1 X158.869 Y101.767 E0.04042
G1 X159.033 Y101.970 E0.00819
G1 X159.531 Y102.257 E0.01804
G1 X160.454 Y102.551 E0.03038
G1 X161.109 Y102.714 E0.02115
G1 X163.017 Y101.181 E0.07676
G1 X163.263 Y100.426 E0.02489
G1 X163.331 Y99.805 E0.01961
G1 X163.464 Y99.154 E0.02082
G1 X163.676 Y98.311 E0.02727
G1 X163.962 Y97.714 E0.02073
G1 X164.529 Y96.628 E0.03843
G1 X164.964 Y95.947 E0.02533
G1 X165.248 Y95.432 E0.01843
G1 X165.462 Y95.323 E0.00754
G1 X165.560 Y95.328 E0.00308
G1 X165.887 Y95.472 E0.01120
G1 X166.586 Y95.947 E0.02650
G1 X166.854 Y96.257 E0.01285
G1 X167.608 Y97.791 E0.05359
G1 X167.727 Y97.933 E0.00580
G1 X167.727 Y109.833 E0.37312
G1 X167.213 Y109.977 E0.01676
G1 X166.804 Y110.017 E0.01286
G1 X164.888 Y110.320 E0.06082
G1 X163.367 Y110.473 E0.04793
G1 X163.181 Y110.427 E0.00602
G1 X163.016 Y110.507 E0.00574
G1 X161.056 Y110.795 E0.06213
G1 X160.181 Y110.802 E0.02744
G1 X156.709 Y111.142 E0.10938
G1 X156.275 Y111.233 E0.01389
G1 X155.792 Y111.265 E0.01519
G1 X155.368 Y111.522 E0.01555
G1 X155.203 Y111.682 E0.00721
G1 X155.024 Y111.810 E0.00690
G1 X154.601 Y112.289 E0.02003
G1 X154.413 Y112.573 E0.01067
G1 X154.213 Y112.696 E0.00738
G1 X153.771 Y112.813 E0.01432
G1 X153.177 Y112.719 E0.01885
G1 X152.738 Y112.694 E0.01380
G1 X152.284 Y112.782 E0.01451
G1 X151.681 Y112.974 E0.01983
G1 X151.350 Y113.036 E0.01057
G1 X151.114 Y113.033 E0.00739
G1 X150.418 Y112.873 E0.02241
G1 X150.398 Y112.788 E0.00276
G1 X149.401 Y112.093 E0.03811
G1 X148.861 Y112.956 E0.03191
G1 X148.634 Y113.660 E0.02320
G1 X148.466 Y113.965 E0.01091
G1 X148.321 Y114.341 E0.01263
G1 X148.105 Y114.605 E0.01069
G1 X147.916 Y114.722 E0.00698
G1 X147.419 Y114.879 E0.01634
G1 X146.311 Y115.020 E0.03503
G1 X145.501 Y114.993 E0.02538
G1 X142.765 Y114.786 E0.08606
G1 X141.238 Y114.642 E0.04807
G1 X139.341 Y114.277 E0.06059
G1 X136.897 Y113.685 E0.07883
G1 X135.191 Y113.310 E0.05478
G1 X131.172 Y112.230 E0.13048
G1 X129.658 Y111.755 E0.04975
G1 X122.817 Y109.356 E0.22731
G1 X120.512 Y108.482 E0.07728
G1 X116.310 Y106.957 E0.14017
G1 X113.498 Y105.908 E0.09409
G1 X111.410 Y105.033 E0.07099
G1 X111.086 Y104.854 E0.01162
G1 X110.264 Y104.551 E0.02745
G1 X106.773 Y103.175 E0.11766
G1 X106.683 Y103.159 E0.00286
G1 X105.380 Y102.675 E0.04358
G1 X103.939 Y102.191 E0.04768
G1 X102.513 Y101.762 E0.04669
G1 X101.671 Y101.463 E0.02800
G1 X99.976 Y100.986 E0.05523
G1 X98.169 Y100.372 E0.05982
G1 X96.675 Y99.773 E0.05048
G1 X95.958 Y99.531 E0.02372
G1 X93.893 Y98.763 E0.06909
G1 X91.171 Y97.701 E0.09159
G1 X87.629 Y96.494 E0.11732
G1 X86.481 Y96.173 E0.03739
G1 X85.801 Y95.935 E0.02258
G1 X83.630 Y95.285 E0.07106
G1 X82.709 Y94.862 E0.03178
G1 X83.518 Y94.859 E0.02538
G1 X86.063 Y95.185 E0.08045
G1 X87.937 Y95.571 E0.05999
G1 X95.126 Y97.207 E0.23117
G1 X95.489 Y97.246 E0.01144
G1 X96.851 Y97.483 E0.04335
G1 X99.768 Y98.020 E0.09300
G1 X101.947 Y98.458 E0.06967
G1 X104.478 Y99.019 E0.08130
G1 X109.228 Y99.891 E0.15141
G1 X116.962 Y101.132 E0.24559
G1 X120.413 Y101.606 E0.10922
G1 X126.878 Y102.359 E0.20409
G1 X129.579 Y102.565 E0.08492
G1 X131.372 Y102.671 E0.05632
G1 X132.819 Y102.679 E0.04539
G1 X142.150 Y102.921 E0.29266
G1 X143.718 Y102.913 E0.04915
G1 X144.869 Y102.814 E0.03623
G1 X146.021 Y102.903 E0.03623
G1 X146.087 Y102.951 E0.00254
G1 X146.720 Y102.910 E0.01989
G1 X147.401 Y102.916 E0.02135
G1 X147.584 Y102.895 E0.00578
G1 X148.048 Y102.935 E0.01461
G1 X148.541 Y103.052 E0.01588
G1 X149.581 Y103.460 E0.03502
M204 S1000
G1 X149.530 Y103.035 F10800.000
M204 S500
G1 F1200.000
G1 X150.217 Y102.275 E0.03213
G1 X150.333 Y102.238 E0.00383
G1 X151.080 Y102.260 E0.02342
G1 X151.212 Y102.273 E0.00415
G1 X151.577 Y102.423 E0.01239
G1 X151.974 Y102.627 E0.01399
G1 X152.997 Y103.257 E0.03767
G1 X153.447 Y103.445 E0.01530
G1 X153.713 Y103.513 E0.00861
G1 X153.923 Y103.436 E0.00701
G1 X154.275 Y103.239 E0.01264
G1 X154.509 Y103.040 E0.00965
G1 X154.787 Y102.662 E0.01470
G1 X154.919 Y102.317 E0.01159
G1 X155.033 Y101.405 E0.02882
G1 X155.279 Y100.775 E0.02120
G1 X155.767 Y100.058 E0.02719
G1 X155.919 Y99.767 E0.01029
G1 X156.064 Y99.632 E0.00620
G1 X156.191 Y99.588 E0.00424
G1 X156.551 Y99.696 E0.01178
G1 X156.742 Y99.729 E0.00608
G1 X157.362 Y100.061 E0.02205
G1 X158.153 Y100.600 E0.03000
G1 X159.145 Y101.508 E0.04217
G1 X159.282 Y101.679 E0.00687
G1 X159.684 Y101.910 E0.01455
G1 X160.557 Y102.188 E0.02873
G1 X161.019 Y102.303 E0.01490
G1 X162.693 Y100.957 E0.06737
G1 X162.893 Y100.347 E0.02014
G1 X162.958 Y99.746 E0.01893
G1 X163.096 Y99.070 E0.02163
G1 X163.320 Y98.182 E0.02872
G1 X163.625 Y97.546 E0.02213
G1 X164.202 Y96.439 E0.03915
G1 X164.640 Y95.755 E0.02546
G1 X165.007 Y95.119 E0.02301
G1 X165.387 Y94.942 E0.01315
G1 X165.649 Y94.955 E0.00820
G1 X166.071 Y95.141 E0.01446
G1 X166.839 Y95.663 E0.02913
G1 X167.171 Y96.048 E0.01592
G1 X167.926 Y97.583 E0.05366
G1 X168.105 Y97.795 E0.00867
G1 X168.105 Y110.119 E0.38640
G1 X167.283 Y110.349 E0.02676
G1 X166.853 Y110.391 E0.01355
G1 X164.937 Y110.695 E0.06082
G1 X163.340 Y110.854 E0.05030
G1 X163.223 Y110.826 E0.00378
G1 X163.129 Y110.872 E0.00329
G1 X161.085 Y111.172 E0.06477
G1 X160.201 Y111.179 E0.02773
G1 X156.766 Y111.515 E0.10820
G1 X156.327 Y111.608 E0.01408
G1 X155.908 Y111.635 E0.01316
G1 X155.600 Y111.822 E0.01131
G1 X155.446 Y111.972 E0.00675
G1 X155.278 Y112.092 E0.00646
G1 X154.901 Y112.519 E0.01787
G1 X154.681 Y112.850 E0.01244
G1 X154.363 Y113.047 E0.01172
G1 X153.791 Y113.198 E0.01858
G1 X153.137 Y113.095 E0.02076
G1 X152.763 Y113.073 E0.01172
G1 X152.377 Y113.148 E0.01233
G1 X151.774 Y113.341 E0.01987
G1 X151.382 Y113.414 E0.01247
G1 X151.069 Y113.410 E0.00982
G1 X150.102 Y113.188 E0.03111
G1 X150.063 Y113.013 E0.00561
G1 X149.510 Y112.629 E0.02110
G1 X149.206 Y113.117 E0.01802
G1 X148.982 Y113.811 E0.02286
G1 X148.809 Y114.125 E0.01124
G1 X148.653 Y114.530 E0.01361
G1 X148.344 Y114.900 E0.01513
G1 X148.074 Y115.067 E0.00995
G1 X147.500 Y115.248 E0.01888
G1 X146.329 Y115.397 E0.03701
G1 X145.871 Y115.384 E0.01438
G1 X145.473 Y115.369 E0.01248
G1 X142.734 Y115.162 E0.08612
G1 X141.185 Y115.016 E0.04878
G1 X139.261 Y114.645 E0.06144
G1 X136.812 Y114.053 E0.07899
G1 X135.101 Y113.676 E0.05493
G1 X131.067 Y112.592 E0.13099
G1 X129.539 Y112.113 E0.05019
G1 X122.688 Y109.710 E0.22766
G1 X120.381 Y108.836 E0.07734
G1 X116.180 Y107.311 E0.14014
G1 X113.359 Y106.259 E0.09438
G1 X111.245 Y105.373 E0.07187
G1 X110.928 Y105.198 E0.01136
G1 X110.130 Y104.904 E0.02668
G1 X106.670 Y103.540 E0.11661
G1 X106.584 Y103.525 E0.00274
G1 X105.255 Y103.031 E0.04446
G1 X103.824 Y102.551 E0.04730
G1 X102.395 Y102.120 E0.04680
G1 X101.557 Y101.822 E0.02789
G1 X99.864 Y101.346 E0.05515
G1 X98.038 Y100.725 E0.06045
G1 X96.545 Y100.127 E0.05046
G1 X95.832 Y99.887 E0.02357
G1 X93.758 Y99.115 E0.06937
G1 X91.043 Y98.056 E0.09138
G1 X89.558 Y97.563 E0.04905
G1 X89.370 Y97.476 E0.00649
G1 X87.518 Y96.855 E0.06125
G1 X86.368 Y96.533 E0.03747
G1 X85.685 Y96.294 E0.02269
G1 X83.497 Y95.638 E0.07161
G1 X82.396 Y95.133 E0.03796
G1 X81.958 Y94.717 E0.01895
G1 X81.955 Y94.653 E0.00201
G1 X82.048 Y94.563 E0.00406
G1 X82.307 Y94.489 E0.00845
G1 X83.547 Y94.482 E0.03889
G1 X86.126 Y94.812 E0.08150
G1 X88.017 Y95.203 E0.06056
G1 X95.189 Y96.834 E0.23061
G1 X95.542 Y96.873 E0.01113
G1 X96.918 Y97.112 E0.04378
G1 X99.840 Y97.649 E0.09316
G1 X102.025 Y98.089 E0.06988
G1 X104.553 Y98.649 E0.08120
G1 X109.292 Y99.519 E0.15106
G1 X117.017 Y100.759 E0.24532
G1 X120.460 Y101.232 E0.10896
G1 X126.914 Y101.984 E0.20373
G1 X129.604 Y102.189 E0.08458
G1 X131.384 Y102.294 E0.05591
G1 X132.825 Y102.302 E0.04519
G1 X142.154 Y102.544 E0.29260
G1 X143.701 Y102.536 E0.04849
G1 X144.870 Y102.435 E0.03678
G1 X145.818 Y102.519 E0.02987
G1 X146.148 Y102.530 E0.01034
G1 X146.197 Y102.566 E0.00190
G1 X146.709 Y102.532 E0.01609
G1 X147.381 Y102.538 E0.02107
G1 X147.579 Y102.516 E0.00625
G1 X148.108 Y102.562 E0.01665
G1 X148.654 Y102.691 E0.01758
G1 X149.474 Y103.013 E0.02762
M204 S1000
G1 X149.861 Y103.260 F10800.000
G1 F8640.000
G1 X150.217 Y102.275 E-0.24187
G1 X150.333 Y102.238 E-0.02823
G1 X151.080 Y102.260 E-0.17246
G1 X151.212 Y102.273 E-0.03058
G1 X151.577 Y102.423 E-0.09124
G1 X151.974 Y102.627 E-0.10305
G1 X152.315 Y102.837 E-0.09257
G1 E-0.04000 F2100.00000
G1 Z0.800 F10800.000
G1 X167.164 Y97.999
G1 Z0.200
G1 E0.80000 F2100.00000
M204 S500
G1 F1200.000
G1 X165.500 Y96.335 E0.07400
G1 X165.291 Y96.661 E0.01217
