; generated by PrusaSlicer 2.2.0+ on 2020-08-04 at 20:52:35 UTC

; 

; external perimeters extrusion width = 0.45mm
; perimeters extrusion width = 0.45mm
; infill extrusion width = 0.45mm
; solid infill extrusion width = 0.45mm
; top infill extrusion width = 0.40mm
; first layer extrusion width = 0.42mm

M73 P0 R83
M73 Q0 S84
M201 X1000 Y1000 Z200 E5000 ; sets maximum accelerations, mm/sec^2
M203 X200 Y200 Z12 E120 ; sets maximum feedrates, mm/sec
M204 P1250 R1250 T1250 ; sets acceleration (P, T) and retract acceleration (R), mm/sec^2
M205 X8.00 Y8.00 Z0.40 E4.50 ; sets the jerk limits, mm/sec
M205 S0 T0 ; sets the minimum extruding and travel feed rate, mm/sec
M107
M862.3 P "MK3S" ; printer model check
M862.1 P0.4 ; nozzle diameter check
M115 U3.9.0 ; tell printer latest fw version
G90 ; use absolute coordinates
M83 ; extruder relative mode
M104 S215 ; set extruder temp
M140 S60 ; set bed temp
M190 S60 ; wait for bed temp
M109 S215 ; wait for extruder temp
G28 W ; home all without mesh bed level
G80 ; mesh bed leveling
G1 Y-3.0 F1000.0 ; go outside print area
G92 E0.0
G1 X60.0 E9.0 F1000.0 ; intro line
M73 Q0 S83
M73 P0 R83
G1 X100.0 E12.5 F1000.0 ; intro line
G92 E0.0
M221 S100

; Don't change E values below. Excessive value can damage the printer.
M907 E430 ; set extruder motor current
G21 ; set units to millimeters
G90 ; use absolute coordinates
M83 ; use relative distances for extrusion
M900 K0.06 ; Filament gcode LA 1.5
M900 K30 ; Filament gcode LA 1.0
;BEFORE_LAYER_CHANGE
G92 E0.0
;0.2


G1 E-0.80000 F2100.00000
G1 Z0.600 F10800.000
;AFTER_LAYER_CHANGE
;0.2
G1 X81.661 Y93.695
G1 Z0.200
G1 E0.80000 F2100.00000
M204 S500
G1 F1200.000
G1 X82.223 Y93.220 E0.02308
G1 X82.903 Y92.939 E0.02308
G1 X83.420 Y92.874 E0.01633
G1 X164.852 Y91.622 E2.55354
G1 X166.064 Y91.697 E0.03808
G1 X167.150 Y92.025 E0.03557
G1 X167.639 Y92.271 E0.01716
G1 X168.082 Y92.627 E0.01784
G1 X168.420 Y93.053 E0.01704
G1 X168.696 Y93.594 E0.01906
G1 X168.870 Y94.257 E0.02149
G1 X168.903 Y94.832 E0.01804
G1 X168.823 Y95.346 E0.01633
G1 X168.242 Y96.588 E0.04297
G1 X167.390 Y97.397 E0.03686
G1 X165.969 Y98.125 E0.05003
G1 X130.378 Y110.928 E1.18594
G1 X120.942 Y114.249 E0.31367
G1 X116.225 Y115.716 E0.15487
G1 X109.760 Y117.303 E0.20874
G1 X107.049 Y117.830 E0.08658
G1 X106.151 Y117.932 E0.02834
G1 X101.792 Y118.200 E0.13692
G1 X99.802 Y117.995 E0.06275
G1 X82.704 Y113.433 E0.55485
G1 X82.163 Y113.172 E0.01882
G1 X81.708 Y112.786 E0.01870
G1 X81.361 Y112.297 E0.01882
G1 X81.148 Y111.735 E0.01882
G1 X81.082 Y111.188 E0.01728
G1 X81.092 Y95.030 E0.50664
G1 X81.272 Y94.320 E0.02296
G1 X81.629 Y93.746 E0.02119
M204 S1000
G1 F8640.000
G1 X82.223 Y93.220 E-0.18318
G1 X82.903 Y92.939 E-0.16994
G1 X83.420 Y92.874 E-0.12025
G1 X84.661 Y92.855 E-0.28663
G1 E-0.04000 F2100.00000
G1 Z0.800 F10800.000
G1 X84.621 Y101.407
G1 Z0.200
G1 E0.80000 F2100.00000
M204 S500
G1 F1200.000
G1 X86.682 Y103.097 E0.08357
G1 X87.503 Y102.944 E0.02621
G1 X88.056 Y102.751 E0.01835
G1 X88.589 Y102.527 E0.01813
G1 X89.374 Y102.060 E0.02865
G1 X89.467 Y101.915 E0.00539
G1 X90.396 Y101.082 E0.03914
G1 X91.366 Y100.515 E0.03522
G1 X91.528 Y100.483 E0.00519
G1 X92.152 Y101.371 E0.03403
G1 X92.238 Y102.271 E0.02833
G1 X92.475 Y102.873 E0.02030
G1 X92.979 Y103.541 E0.02621
G1 X93.643 Y104.008 E0.02548
G1 X94.165 Y104.215 E0.01759
G1 X94.322 Y104.175 E0.00509
G1 X94.522 Y104.211 E0.00636
G1 X95.329 Y103.876 E0.02739
G1 X95.634 Y103.688 E0.01124
G1 X96.590 Y103.169 E0.03410
G1 X96.861 Y103.045 E0.00935
G1 X97.398 Y103.016 E0.01684
G1 X98.237 Y103.935 E0.03901
G1 X99.396 Y103.473 E0.03912
G1 X100.045 Y103.327 E0.02087
G1 X100.510 Y103.292 E0.01463
G1 X101.690 Y103.300 E0.03698
G1 X103.126 Y103.215 E0.04510
G1 X104.440 Y103.305 E0.04129
G1 X106.681 Y103.282 E0.07028
G1 X111.036 Y103.187 E0.13660
G1 X115.095 Y103.026 E0.12736
G1 X116.607 Y102.989 E0.04742
G1 X119.063 Y102.868 E0.07709
G1 X121.240 Y102.681 E0.06852
G1 X127.390 Y101.975 E0.19408
G1 X131.775 Y101.371 E0.13881
G1 X136.278 Y100.667 E0.14288
G1 X138.805 Y100.244 E0.08035
G1 X143.357 Y99.400 E0.14516
G1 X144.417 Y99.162 E0.03406
G1 X148.223 Y98.378 E0.12183
G1 X152.297 Y97.702 E0.12948
G1 X153.029 Y97.525 E0.02362
G1 X154.040 Y97.325 E0.03231
G1 X157.713 Y96.504 E0.11802
G1 X159.751 Y95.999 E0.06582
G1 X160.808 Y95.758 E0.03400
G1 X162.519 Y95.468 E0.05440
G1 X162.972 Y95.408 E0.01432
G1 X162.002 Y95.678 E0.03154
G1 X161.356 Y95.904 E0.02148
G1 X158.428 Y96.834 E0.09632
G1 X156.715 Y97.483 E0.05743
G1 X155.114 Y98.029 E0.05303
G1 X151.902 Y99.236 E0.10759
G1 X148.996 Y100.415 E0.09833
G1 X144.400 Y101.838 E0.15086
G1 X142.831 Y102.394 E0.05219
G1 X141.576 Y102.788 E0.04125
G1 X141.367 Y102.824 E0.00664
G1 X136.712 Y104.554 E0.15572
G1 X135.841 Y105.012 E0.03083
G1 X135.112 Y105.314 E0.02475
G1 X129.694 Y107.396 E0.18201
G1 X123.564 Y109.599 E0.20421
G1 X119.810 Y110.894 E0.12452
G1 X116.139 Y112.043 E0.12061
G1 X116.090 Y112.034 E0.00156
G1 X112.831 Y112.919 E0.10589
G1 X110.268 Y113.521 E0.08254
G1 X108.406 Y113.982 E0.06014
G1 X106.486 Y114.333 E0.06122
G1 X105.564 Y114.413 E0.02900
G1 X103.386 Y114.533 E0.06839
G1 X102.621 Y114.619 E0.02415
G1 X101.620 Y114.650 E0.03138
G1 X100.535 Y114.520 E0.03427
G1 X100.332 Y114.466 E0.00660
G1 X100.057 Y114.314 E0.00986
G1 X100.017 Y114.263 E0.00201
G1 X99.940 Y114.063 E0.00673
G1 X99.685 Y113.599 E0.01659
G1 X99.482 Y112.957 E0.02113
G1 X99.073 Y112.043 E0.03138
G1 X97.310 Y112.168 E0.05541
G1 X97.218 Y112.586 E0.01342
G1 X96.841 Y112.673 E0.01213
G1 X96.619 Y112.664 E0.00697
G1 X95.802 Y112.424 E0.02669
G1 X95.149 Y112.323 E0.02072
G1 X94.481 Y112.399 E0.02110
G1 X94.204 Y112.449 E0.00882
G1 X93.870 Y112.361 E0.01083
G1 X93.800 Y112.318 E0.00258
G1 X93.496 Y111.876 E0.01680
G1 X93.165 Y111.532 E0.01499
G1 X92.835 Y111.253 E0.01353
G1 X92.218 Y110.887 E0.02251
G1 X91.930 Y110.868 E0.00905
G1 X91.524 Y110.782 E0.01301
G1 X91.015 Y110.720 E0.01607
G1 X89.759 Y110.651 E0.03944
G1 X87.949 Y110.470 E0.05702
G1 X86.891 Y110.440 E0.03319
G1 X84.623 Y110.116 E0.07184
G1 X84.621 Y101.467 E0.27119
M204 S1000
G1 F8640.000
G1 X86.682 Y103.097 E-0.60675
G1 X87.334 Y102.975 E-0.15325
G1 E-0.04000 F2100.00000
G1 Z0.800 F10800.000
G1 X98.836 Y112.438
G1 Z0.200
G1 E0.80000 F2100.00000
M204 S500
G1 F1200.000
G1 X97.618 Y112.524 E0.03831
G1 X97.535 Y112.900 E0.01206
G1 X96.877 Y113.051 E0.02119
G1 X96.558 Y113.039 E0.01002
G1 X95.720 Y112.793 E0.02738
G1 X95.142 Y112.703 E0.01834
G1 X94.536 Y112.772 E0.01912
G1 X94.189 Y112.835 E0.01107
G1 X93.720 Y112.711 E0.01521
G1 X93.535 Y112.597 E0.00681
G1 X93.203 Y112.116 E0.01834
G1 X92.906 Y111.807 E0.01341
G1 X92.616 Y111.561 E0.01193
G1 X92.103 Y111.257 E0.01869
G1 X91.878 Y111.243 E0.00707
G1 X91.462 Y111.154 E0.01334
G1 X90.982 Y111.096 E0.01516
G1 X89.730 Y111.028 E0.03932
G1 X87.925 Y110.846 E0.05687
G1 X86.859 Y110.816 E0.03345
G1 X84.673 Y110.500 E0.06925
G1 X84.246 Y110.459 E0.01345
G1 X84.235 Y98.037 E0.38947
G1 X84.287 Y98.156 E0.00408
G1 X84.686 Y99.754 E0.05164
G1 X84.702 Y99.917 E0.00512
G1 X84.675 Y100.356 E0.01379
G1 X84.919 Y101.164 E0.02647
G1 X86.785 Y102.694 E0.07567
G1 X87.406 Y102.578 E0.01981
G1 X87.921 Y102.399 E0.01708
G1 X88.418 Y102.190 E0.01693
G1 X89.104 Y101.781 E0.02504
G1 X89.175 Y101.671 E0.00411
G1 X90.173 Y100.776 E0.04204
G1 X91.231 Y100.157 E0.03842
G1 X91.640 Y100.077 E0.01305
G1 X91.814 Y100.233 E0.00733
G1 X91.943 Y100.400 E0.00661
G1 X92.505 Y101.220 E0.03117
G1 X92.539 Y101.379 E0.00508
G1 X92.609 Y102.184 E0.02534
G1 X92.807 Y102.687 E0.01697
G1 X93.244 Y103.266 E0.02275
G1 X93.824 Y103.674 E0.02222
G1 X94.190 Y103.820 E0.01236
G1 X94.308 Y103.790 E0.00381
G1 X94.479 Y103.820 E0.00545
G1 X95.156 Y103.539 E0.02299
G1 X95.445 Y103.361 E0.01063
G1 X96.421 Y102.832 E0.03482
G1 X96.769 Y102.672 E0.01200
G1 X97.556 Y102.630 E0.02470
G1 X98.339 Y103.488 E0.03643
G1 X99.284 Y103.111 E0.03189
G1 X99.990 Y102.953 E0.02268
G1 X100.498 Y102.915 E0.01598
G1 X101.680 Y102.923 E0.03707
G1 X103.127 Y102.837 E0.04546
G1 X104.450 Y102.928 E0.04158
G1 X106.675 Y102.905 E0.06974
G1 X111.025 Y102.810 E0.13643
G1 X115.083 Y102.649 E0.12735
G1 X116.593 Y102.612 E0.04736
G1 X119.037 Y102.492 E0.07672
G1 X121.202 Y102.306 E0.06813
G1 X127.342 Y101.601 E0.19378
G1 X131.720 Y100.998 E0.13857
G1 X136.217 Y100.294 E0.14271
G1 X138.740 Y99.873 E0.08019
G1 X143.282 Y99.031 E0.14483
G1 X144.338 Y98.793 E0.03395
G1 X148.154 Y98.007 E0.12217
G1 X152.222 Y97.332 E0.12927
G1 X152.948 Y97.156 E0.02343
G1 X153.962 Y96.956 E0.03242
G1 X157.627 Y96.137 E0.11774
G1 X159.664 Y95.632 E0.06580
G1 X160.735 Y95.388 E0.03444
G1 X162.463 Y95.095 E0.05495
G1 X164.735 Y94.796 E0.07188
G1 X165.485 Y94.821 E0.02353
G1 X164.723 Y95.159 E0.02615
G1 X164.586 Y95.267 E0.00549
G1 X163.343 Y95.696 E0.04123
G1 X162.115 Y96.038 E0.03994
G1 X161.475 Y96.262 E0.02126
G1 X158.552 Y97.190 E0.09617
G1 X156.843 Y97.838 E0.05730
G1 X155.242 Y98.384 E0.05305
G1 X152.040 Y99.587 E0.10726
G1 X149.123 Y100.770 E0.09868
G1 X144.519 Y102.196 E0.15113
G1 X142.950 Y102.751 E0.05217
G1 X141.665 Y103.155 E0.04224
G1 X141.466 Y103.189 E0.00633
G1 X136.866 Y104.899 E0.15388
G1 X136.001 Y105.353 E0.03061
G1 X135.252 Y105.664 E0.02544
G1 X129.825 Y107.750 E0.18229
G1 X123.690 Y109.954 E0.20441
G1 X119.928 Y111.252 E0.12476
G1 X116.165 Y112.430 E0.12362
G1 X116.109 Y112.420 E0.00179
G1 X112.923 Y113.285 E0.10350
G1 X110.357 Y113.888 E0.08267
G1 X108.486 Y114.351 E0.06043
G1 X106.536 Y114.707 E0.06214
G1 X105.591 Y114.789 E0.02975
G1 X103.418 Y114.909 E0.06824
G1 X102.648 Y114.996 E0.02429
G1 X101.604 Y115.027 E0.03275
G1 X100.464 Y114.892 E0.03600
G1 X100.190 Y114.818 E0.00890
G1 X99.799 Y114.596 E0.01409
G1 X99.686 Y114.452 E0.00575
G1 X99.597 Y114.222 E0.00772
G1 X99.337 Y113.748 E0.01695
G1 X99.129 Y113.091 E0.02162
G1 X98.861 Y112.493 E0.02055
M204 S1000
G1 X98.600 Y112.833 F10800.000
M204 S500
G1 F1200.000
G1 X97.926 Y112.880 E0.02120
G1 X97.852 Y113.214 E0.01071
G1 X96.912 Y113.430 E0.03025
G1 X96.496 Y113.414 E0.01306
G1 X95.638 Y113.161 E0.02806
G1 X95.134 Y113.084 E0.01597
G1 X94.591 Y113.145 E0.01714
G1 X94.173 Y113.222 E0.01332
G1 X93.569 Y113.061 E0.01959
G1 X93.269 Y112.877 E0.01105
G1 X92.910 Y112.355 E0.01988
G1 X92.648 Y112.082 E0.01184
G1 X92.396 Y111.870 E0.01033
G1 X91.988 Y111.628 E0.01487
G1 X91.826 Y111.617 E0.00510
G1 X91.400 Y111.526 E0.01367
G1 X90.949 Y111.472 E0.01424
G1 X89.700 Y111.404 E0.03921
G1 X87.901 Y111.223 E0.05671
G1 X86.826 Y111.193 E0.03371
G1 X84.628 Y110.874 E0.06965
G1 X83.869 Y110.801 E0.02390
G1 X83.866 Y98.231 E0.39411
G1 X83.845 Y97.721 E0.01602
G1 X83.780 Y97.206 E0.01628
G1 X83.678 Y96.720 E0.01556
G1 X83.671 Y95.952 E0.02410
G1 X83.953 Y96.394 E0.01645
G1 X84.645 Y98.034 E0.05583
G1 X85.058 Y99.689 E0.05349
G1 X85.080 Y99.909 E0.00692
G1 X85.056 Y100.311 E0.01263
G1 X85.247 Y100.945 E0.02076
G1 X86.889 Y102.291 E0.06657
G1 X87.309 Y102.213 E0.01342
G1 X87.785 Y102.047 E0.01581
G1 X88.248 Y101.853 E0.01573
G1 X88.835 Y101.503 E0.02143
G1 X88.884 Y101.427 E0.00282
G1 X89.024 Y101.297 E0.00598
G1 X89.950 Y100.469 E0.03897
G1 X91.096 Y99.799 E0.04163
G1 X91.717 Y99.692 E0.01977
G1 X91.871 Y99.773 E0.00546
G1 X92.092 Y99.977 E0.00944
G1 X92.248 Y100.178 E0.00795
G1 X92.863 Y101.093 E0.03458
G1 X92.913 Y101.323 E0.00737
G1 X92.979 Y102.097 E0.02437
G1 X93.139 Y102.501 E0.01363
G1 X93.509 Y102.992 E0.01928
G1 X94.004 Y103.340 E0.01897
G1 X94.216 Y103.424 E0.00714
G1 X94.294 Y103.404 E0.00254
G1 X94.437 Y103.430 E0.00453
G1 X94.984 Y103.202 E0.01859
G1 X95.256 Y103.035 E0.01002
G1 X96.252 Y102.495 E0.03553
G1 X96.677 Y102.299 E0.01465
G1 X97.617 Y102.249 E0.02953
G1 X97.756 Y102.290 E0.00453
G1 X98.442 Y103.041 E0.03188
G1 X99.172 Y102.750 E0.02465
G1 X99.934 Y102.579 E0.02448
G1 X100.485 Y102.538 E0.01733
G1 X101.670 Y102.546 E0.03716
G1 X103.129 Y102.460 E0.04583
G1 X104.461 Y102.551 E0.04187
G1 X106.669 Y102.528 E0.06921
G1 X111.013 Y102.433 E0.13625
G1 X115.071 Y102.272 E0.12734
G1 X116.580 Y102.235 E0.04731
G1 X119.012 Y102.116 E0.07636
G1 X121.165 Y101.931 E0.06775
G1 X127.295 Y101.227 E0.19348
G1 X131.666 Y100.625 E0.13832
G1 X136.157 Y99.922 E0.14255
G1 X138.674 Y99.502 E0.08002
G1 X143.206 Y98.661 E0.14450
G1 X144.259 Y98.425 E0.03383
G1 X148.085 Y97.636 E0.12250
G1 X152.146 Y96.963 E0.12907
G1 X152.867 Y96.788 E0.02325
G1 X153.885 Y96.587 E0.03253
G1 X157.540 Y95.770 E0.11745
G1 X159.576 Y95.265 E0.06577
G1 X160.661 Y95.018 E0.03489
G1 X162.406 Y94.722 E0.05550
G1 X164.714 Y94.418 E0.07296
G1 X165.520 Y94.437 E0.02528
G1 X166.095 Y94.613 E0.01886
G1 X166.108 Y94.666 E0.00172
G1 X165.996 Y94.923 E0.00878
G1 X165.827 Y95.082 E0.00729
G1 X164.919 Y95.484 E0.03112
G1 X164.769 Y95.603 E0.00600
G1 X163.455 Y96.057 E0.04360
G1 X162.228 Y96.398 E0.03992
G1 X161.595 Y96.619 E0.02105
G1 X158.676 Y97.546 E0.09602
G1 X156.971 Y98.193 E0.05718
G1 X155.369 Y98.739 E0.05306
G1 X152.177 Y99.939 E0.10692
G1 X149.250 Y101.126 E0.09903
G1 X144.638 Y102.554 E0.15140
G1 X143.070 Y103.109 E0.05215
G1 X141.754 Y103.522 E0.04323
G1 X141.565 Y103.555 E0.00603
G1 X137.020 Y105.244 E0.15203
G1 X136.162 Y105.695 E0.03039
G1 X135.392 Y106.014 E0.02613
G1 X129.956 Y108.103 E0.18258
G1 X123.815 Y110.310 E0.20462
G1 X120.046 Y111.610 E0.12501
G1 X116.192 Y112.816 E0.12662
G1 X116.128 Y112.806 E0.00203
G1 X113.016 Y113.650 E0.10110
G1 X110.445 Y114.254 E0.08280
G1 X108.565 Y114.720 E0.06073
G1 X106.586 Y115.081 E0.06306
G1 X105.618 Y115.165 E0.03049
G1 X103.449 Y115.285 E0.06809
G1 X102.675 Y115.372 E0.02444
G1 X101.587 Y115.405 E0.03412
G1 X100.392 Y115.263 E0.03772
G1 X100.047 Y115.171 E0.01120
G1 X99.534 Y114.869 E0.01866
G1 X99.354 Y114.641 E0.00912
G1 X99.255 Y114.381 E0.00871
G1 X98.988 Y113.898 E0.01732
G1 X98.776 Y113.225 E0.02211
G1 X98.625 Y112.887 E0.01160
M204 S1000
G1 X98.535 Y112.438 F10800.000
G1 F8640.000
G1 X97.926 Y112.880 E-0.16143
G1 X97.852 Y113.214 E-0.07884
G1 X96.912 Y113.430 E-0.22274
G1 X96.496 Y113.414 E-0.09618
G1 X95.662 Y113.168 E-0.20081
G1 E-0.04000 F2100.00000
G1 Z0.800 F10800.000
G1 X100.578 Y114.412
G1 Z0.200
G1 E0.80000 F2100.00000
M204 S500
G1 F1200.000
G1 X100.252 Y114.086 E0.01446
G1 X100.197 Y113.944 E0.00479
G1 X99.946 Y113.488 E0.01634
G1 X99.835 Y113.135 E0.01161
G1 X101.184 Y114.484 E0.05991
M204 S1000
G1 F8640.000
G1 X99.835 Y113.135 E-0.44048
G1 X99.946 Y113.488 E-0.08539
G1 X100.197 Y113.944 E-0.12018
G1 X100.252 Y114.086 E-0.03524
G1 X100.493 Y114.327 E-0.07872
G1 E-0.04000 F2100.00000
G1 Z0.800 F10800.000
G1 X83.914 Y96.817
G1 Z0.200
G1 E0.80000 F2100.00000
M204 S500
G1 F1200.000
G1 X83.938 Y96.890 E0.00040
M204 S1000
M204 S500
G1 X84.021 Y97.167 E0.00263
M204 S1000
M204 S500
G1 X84.058 Y97.313 E0.00183
M204 S1000
M204 S500
G1 X84.095 Y97.458 E0.00229
M204 S1000
M204 S500
G1 X84.133 Y97.608 E0.00284
M204 S1000
M204 S500
G1 X84.158 Y97.700 E0.00199
M204 S1000
M204 S500
G1 X84.193 Y97.853 E0.00339
M204 S1000
G1 F8640.000
G1 X84.158 Y97.700 E-0.03622
G1 E-0.76378 F2100.00000
G1 Z0.800 F10800.000
G1 X84.454 Y99.694
G1 Z0.200
G1 E0.80000 F2100.00000
M204 S500
G1 F1200.000
G1 X84.472 Y99.921 E0.00103
G1 X84.459 Y100.386 E0.00210
M204 S1000
M204 S500
G1 X84.486 Y100.569 E0.00149
M204 S1000
M204 S500
G1 X84.513 Y100.752 E0.00213
M204 S1000
M204 S500
G1 X84.540 Y100.936 E0.00278
M204 S1000
M204 S500
G1 X84.567 Y101.119 E0.00343
M204 S1000
G1 F8640.000
G1 X84.540 Y100.936 E-0.04283
G1 E-0.75717 F2100.00000
G1 Z0.800 F10800.000
G1 X92.062 Y101.623
G1 Z0.200
G1 E0.80000 F2100.00000
M204 S500
G1 F1200.000
G1 X91.312 Y100.873 E0.03330
G1 X90.975 Y101.071 E0.01226
G1 X92.118 Y102.214 E0.05076
M204 S1000
G1 F8640.000
G1 X90.975 Y101.071 E-0.37327
G1 X91.312 Y100.873 E-0.09014
G1 X92.062 Y101.623 E-0.24486
G1 E-0.09174 F2100.00000
G1 Z0.800 F10800.000
G1 X84.736 Y109.252
G1 Z0.200
G1 E0.80000 F2100.00000
M204 S500
G1 F1200.000
G1 X85.429 Y109.946 E0.03081
G1 X86.053 Y110.035 E0.01976
G1 X84.905 Y108.887 E0.05094
G1 X84.905 Y108.353 E0.01678
G1 X86.676 Y110.123 E0.07862
G1 X86.915 Y110.158 E0.00760
G1 X87.253 Y110.167 E0.01063
G1 X84.905 Y107.819 E0.10429
G1 X84.905 Y107.285 E0.01678
G1 X87.803 Y110.183 E0.12870
