; generated by PrusaSlicer 2.2.0+ on 2020-08-01 at 00:34:27 UTC

; 

; external perimeters extrusion width = 0.45mm
; perimeters extrusion width = 0.45mm
; infill extrusion width = 0.45mm
; solid infill extrusion width = 0.45mm
; top infill extrusion width = 0.40mm
; first layer extrusion width = 0.42mm

M73 P0 R84
M73 Q0 S85
M201 X1000 Y1000 Z200 E5000 ; sets maximum accelerations, mm/sec^2
M203 X200 Y200 Z12 E120 ; sets maximum feedrates, mm/sec
M204 P1250 R1250 T1250 ; sets acceleration (P, T) and retract acceleration (R), mm/sec^2
M205 X8.00 Y8.00 Z0.40 E4.50 ; sets the jerk limits, mm/sec
M205 S0 T0 ; sets the minimum extruding and travel feed rate, mm/sec
M107
M862.3 P "MK3S" ; printer model check
M862.1 P0.4 ; nozzle diameter check
M115 U3.9.0 ; tell printer latest fw version
G90 ; use absolute coordinates
M83 ; extruder relative mode
M104 S215 ; set extruder temp
M140 S60 ; set bed temp
M190 S60 ; wait for bed temp
M109 S215 ; wait for extruder temp
G28 W ; home all without mesh bed level
G80 ; mesh bed leveling
G1 Y-3.0 F1000.0 ; go outside print area
G92 E0.0
G1 X60.0 E9.0 F1000.0 ; intro line
M73 Q0 S84
M73 P0 R84
G1 X100.0 E12.5 F1000.0 ; intro line
G92 E0.0
M221 S100
G21 ; set units to millimeters
G90 ; use absolute coordinates
M83 ; use relative distances for extrusion
M900 K0.06 ; Filament gcode LA 1.5
M900 K30 ; Filament gcode LA 1.0
;BEFORE_LAYER_CHANGE
G92 E0.0
;0.2


G1 E-0.80000 F2100.00000
G1 Z0.600 F10800.000
;AFTER_LAYER_CHANGE
;0.2
G1 X102.463 Y76.120
G1 Z0.200
G1 E0.80000 F2100.00000
M204 S500
G1 F1200.000
G1 X102.858 Y75.401 E0.02571
G1 X103.505 Y74.571 E0.03299
G1 X104.115 Y73.975 E0.02674
G1 X111.239 Y68.892 E0.27439
G1 X111.908 Y68.603 E0.02284
G1 X112.852 Y68.471 E0.02989
G1 X113.708 Y68.631 E0.02731
G1 X120.919 Y71.600 E0.24450
G1 X122.722 Y72.550 E0.06391
G1 X146.849 Y92.086 E0.97338
G1 X147.287 Y92.565 E0.02036
G1 X147.579 Y93.141 E0.02024
G1 X147.707 Y94.007 E0.02743
G1 X146.916 Y110.947 E0.53173
G1 X139.284 Y139.090 E0.91428
G1 X139.059 Y139.598 E0.01740
G1 X138.721 Y140.042 E0.01752
G1 X138.292 Y140.393 E0.01740
G1 X137.789 Y140.637 E0.01752
G1 X137.045 Y140.767 E0.02367
G1 X129.449 Y140.754 E0.23818
G1 X128.901 Y140.629 E0.01763
G1 X128.397 Y140.379 E0.01763
G1 X127.964 Y140.014 E0.01775
G1 X127.631 Y139.561 E0.01763
G1 X127.214 Y138.701 E0.02998
G1 X102.525 Y78.318 E2.04542
G1 X102.319 Y77.005 E0.04166
G1 X102.453 Y76.179 E0.02625
M204 S1000
G1 F8640.000
G1 X102.858 Y75.401 E-0.20248
G1 X103.505 Y74.571 E-0.24297
G1 X104.115 Y73.975 E-0.19691
G1 X104.530 Y73.679 E-0.11764
G1 E-0.04000 F2100.00000
G1 Z0.800 F10800.000
G1 X105.906 Y77.249
G1 Z0.200
G1 E0.80000 F2100.00000
M204 S500
G1 F1200.000
G1 X106.158 Y76.923 E0.01291
G1 X106.543 Y76.570 E0.01637
G1 X107.789 Y76.145 E0.04129
G1 X108.241 Y75.932 E0.01565
G1 X109.047 Y75.685 E0.02644
G1 X109.635 Y75.569 E0.01881
G1 X110.765 Y74.907 E0.04104
G1 X111.500 Y73.567 E0.04794
G1 X111.754 Y73.392 E0.00966
G1 X112.051 Y72.915 E0.01762
G1 X112.320 Y72.751 E0.00987
G1 X112.491 Y72.554 E0.00818
G1 X112.718 Y72.354 E0.00947
G1 X112.842 Y72.173 E0.00690
G1 X113.137 Y72.319 E0.01031
G1 X114.224 Y73.117 E0.04229
G1 X114.804 Y73.583 E0.02331
G1 X115.759 Y73.985 E0.03250
G1 X116.199 Y74.139 E0.01461
G1 X116.572 Y74.219 E0.01198
G1 X116.789 Y74.315 E0.00744
G1 X117.315 Y74.666 E0.01981
G1 X118.274 Y74.942 E0.03128
G1 X118.716 Y74.893 E0.01396
G1 X119.472 Y74.990 E0.02390
G1 X120.004 Y75.111 E0.01710
G1 X120.603 Y75.427 E0.02123
G1 X120.929 Y75.682 E0.01297
G1 X121.269 Y76.061 E0.01597
G1 X121.435 Y76.312 E0.00942
G1 X121.578 Y76.676 E0.01227
G1 X121.948 Y77.146 E0.01878
G1 X122.096 Y77.400 E0.00922
G1 X122.352 Y77.659 E0.01140
G1 X121.991 Y78.472 E0.02786
G1 X121.767 Y79.222 E0.02457
G1 X121.893 Y79.867 E0.02058
G1 X122.278 Y80.334 E0.01899
G1 X122.345 Y80.382 E0.00258
G1 X122.541 Y80.640 E0.01016
G1 X124.399 Y81.363 E0.06250
G1 X124.447 Y81.357 E0.00152
G1 X124.710 Y81.483 E0.00915
G1 X125.433 Y81.884 E0.02591
G1 X125.800 Y82.031 E0.01240
G1 X126.244 Y82.304 E0.01636
G1 X126.970 Y82.710 E0.02608
G1 X127.795 Y83.028 E0.02773
G1 X128.460 Y83.389 E0.02373
G1 X129.147 Y83.694 E0.02356
G1 X129.758 Y84.009 E0.02156
G1 X130.217 Y84.201 E0.01560
G1 X131.683 Y84.944 E0.05153
G1 X132.864 Y85.870 E0.04704
G1 X132.982 Y85.936 E0.00423
G1 X133.678 Y86.654 E0.03136
G1 X134.271 Y87.508 E0.03259
G1 X134.729 Y88.345 E0.02993
G1 X134.860 Y88.641 E0.01014
G1 X135.352 Y89.275 E0.02516
G1 X135.447 Y89.440 E0.00598
G1 X135.695 Y90.062 E0.02098
G1 X136.082 Y90.834 E0.02708
G1 X136.257 Y90.998 E0.00755
G1 X136.569 Y91.411 E0.01621
G1 X137.221 Y91.828 E0.02427
G1 X137.888 Y92.592 E0.03179
G1 X138.343 Y92.861 E0.01659
G1 X138.472 Y92.964 E0.00518
G1 X138.612 Y92.992 E0.00446
G1 X139.027 Y93.625 E0.02373
G1 X139.578 Y93.929 E0.01973
G1 X139.938 Y93.979 E0.01138
G1 X140.334 Y94.131 E0.01331
G1 X141.145 Y94.235 E0.02563
G1 X142.835 Y94.332 E0.05308
G1 X143.183 Y94.370 E0.01098
G1 X144.133 Y94.658 E0.03113
G1 X143.438 Y110.119 E0.48527
G1 X142.603 Y111.510 E0.05086
G1 X141.949 Y112.956 E0.04978
G1 X141.725 Y113.553 E0.01998
G1 X140.670 Y115.634 E0.07316
G1 X140.358 Y116.150 E0.01890
G1 X140.297 Y116.311 E0.00538
G1 X140.187 Y116.451 E0.00561
G1 X139.505 Y117.762 E0.04632
G1 X139.042 Y118.882 E0.03801
G1 X138.386 Y120.239 E0.04726
G1 X137.798 Y122.861 E0.08425
G1 X137.358 Y124.960 E0.06725
G1 X137.315 Y125.259 E0.00946
G1 X137.188 Y126.410 E0.03630
G1 X137.191 Y127.994 E0.04967
G1 X137.160 Y129.149 E0.03624
G1 X137.122 Y129.412 E0.00835
G1 X137.121 Y130.331 E0.02881
G1 X137.072 Y130.722 E0.01235
G1 X137.018 Y131.909 E0.03725
G1 X136.908 Y132.754 E0.02672
G1 X136.826 Y133.090 E0.01086
G1 X136.673 Y134.057 E0.03069
G1 X136.534 Y134.495 E0.01441
G1 X136.108 Y136.403 E0.06130
G1 X136.066 Y136.833 E0.01353
G1 X136.005 Y137.203 E0.01176
G1 X130.955 Y137.203 E0.15833
G1 X130.998 Y137.125 E0.00279
G1 X131.118 Y136.542 E0.01867
G1 X131.112 Y136.403 E0.00438
G1 X131.159 Y136.276 E0.00423
G1 X131.316 Y135.387 E0.02831
G1 X131.292 Y134.885 E0.01575
G1 X131.543 Y134.617 E0.01151
G1 X131.795 Y134.235 E0.01435
G1 X132.042 Y133.810 E0.01539
G1 X132.085 Y133.632 E0.00574
G1 X132.270 Y133.204 E0.01462
G1 X132.315 Y132.957 E0.00788
G1 X132.364 Y132.847 E0.00378
G1 X132.439 Y132.731 E0.00432
G1 X133.139 Y131.919 E0.03361
G1 X133.460 Y131.158 E0.02591
G1 X133.666 Y130.933 E0.00958
G1 X133.910 Y130.577 E0.01352
G1 X134.098 Y130.228 E0.01243
G1 X134.447 Y129.206 E0.03384
G1 X134.442 Y129.015 E0.00600
G1 X134.753 Y127.481 E0.04907
G1 X135.152 Y126.136 E0.04400
G1 X135.364 Y125.586 E0.01848
G1 X135.436 Y125.230 E0.01138
G1 X135.846 Y124.133 E0.03671
G1 X135.842 Y123.739 E0.01236
G1 X136.028 Y122.820 E0.02939
G1 X135.709 Y122.632 E0.01161
G1 X135.770 Y122.009 E0.01960
G1 X135.564 Y121.975 E0.00657
G1 X135.635 Y121.460 E0.01632
G1 X135.623 Y121.134 E0.01022
G1 X136.022 Y119.192 E0.06215
G1 X136.274 Y117.459 E0.05493
G1 X136.422 Y115.936 E0.04797
G1 X136.434 Y115.351 E0.01833
G1 X136.552 Y114.868 E0.01561
G1 X136.715 Y113.519 E0.04259
G1 X136.922 Y112.354 E0.03712
G1 X136.994 Y112.104 E0.00815
G1 X137.646 Y110.401 E0.05718
G1 X138.152 Y109.206 E0.04069
G1 X138.669 Y107.788 E0.04731
G1 X138.926 Y107.447 E0.01340
G1 X138.853 Y107.139 E0.00993
G1 X138.876 Y107.014 E0.00397
G1 X138.955 Y106.816 E0.00668
G1 X139.000 Y105.292 E0.04781
G1 X138.970 Y104.614 E0.02129
G1 X139.008 Y103.905 E0.02227
G1 X139.002 Y103.217 E0.02157
G1 X138.940 Y102.309 E0.02852
G1 X138.472 Y101.769 E0.02241
G1 X138.422 Y101.647 E0.00412
G1 X138.009 Y101.268 E0.01758
G1 X137.749 Y101.181 E0.00858
G1 X137.103 Y100.855 E0.02269
G1 X136.930 Y100.732 E0.00667
G1 X134.416 Y99.290 E0.09086
G1 X133.329 Y98.462 E0.04284
G1 X132.775 Y98.143 E0.02003
G1 X132.203 Y97.726 E0.02221
G1 X131.200 Y96.929 E0.04018
G1 X130.415 Y96.334 E0.03086
G1 X129.345 Y95.642 E0.03996
G1 X128.613 Y95.096 E0.02863
G1 X128.362 Y94.875 E0.01049
G1 X128.091 Y94.580 E0.01256
G1 X127.832 Y94.350 E0.01087
G1 X127.517 Y93.942 E0.01615
G1 X127.133 Y93.493 E0.01855
G1 X126.010 Y91.936 E0.06018
G1 X125.472 Y91.058 E0.03228
G1 X125.395 Y90.878 E0.00614
G1 X125.327 Y90.801 E0.00321
G1 X125.051 Y90.236 E0.01973
G1 X124.371 Y89.582 E0.02959
G1 X122.870 Y89.126 E0.04920
G1 X121.824 Y88.622 E0.03640
G1 X120.762 Y88.457 E0.03369
G1 X120.246 Y88.319 E0.01675
G1 X120.573 Y87.581 E0.02532
G1 X120.514 Y86.608 E0.03057
G1 X120.213 Y85.946 E0.02279
G1 X119.566 Y84.756 E0.04247
G1 X119.418 Y84.750 E0.00467
G1 X119.242 Y84.506 E0.00944
G1 X118.975 Y84.313 E0.01031
G1 X118.506 Y84.040 E0.01702
G1 X117.732 Y84.009 E0.02429
G1 X117.329 Y84.112 E0.01303
G1 X116.640 Y84.438 E0.02391
G1 X116.447 Y84.331 E0.00692
G1 X116.013 Y84.030 E0.01655
G1 X115.574 Y83.847 E0.01492
G1 X115.223 Y83.850 E0.01102
G1 X114.560 Y83.898 E0.02083
G1 X114.239 Y83.965 E0.01026
G1 X113.931 Y84.086 E0.01040
G1 X112.986 Y84.299 E0.03036
G1 X112.429 Y84.369 E0.01760
G1 X112.359 Y84.397 E0.00237
G1 X112.234 Y84.398 E0.00393
G1 X112.108 Y84.314 E0.00475
G1 X111.842 Y83.961 E0.01385
G1 X110.596 Y82.980 E0.04972
G1 X110.311 Y82.660 E0.01345
G1 X110.054 Y82.522 E0.00913
G1 X109.608 Y82.186 E0.01751
G1 X107.680 Y80.499 E0.08032
G1 X107.483 Y80.299 E0.00879
G1 X107.255 Y79.954 E0.01298
G1 X106.691 Y79.230 E0.02877
G1 X106.626 Y79.116 E0.00411
G1 X105.928 Y77.305 E0.06088
M204 S1000
G1 F8640.000
G1 X106.158 Y76.923 E-0.10295
G1 X106.543 Y76.570 E-0.12059
G1 X107.789 Y76.145 E-0.30406
G1 X108.241 Y75.932 E-0.11525
G1 X108.726 Y75.783 E-0.11715
G1 E-0.04000 F2100.00000
G1 Z0.800 F10800.000
G1 X135.605 Y123.008
G1 Z0.200
G1 E0.80000 F2100.00000
M204 S500
G1 F1200.000
G1 X135.310 Y122.834 E0.01075
G1 X135.360 Y122.324 E0.01606
G1 X135.169 Y122.292 E0.00607
G1 X135.163 Y122.118 E0.00546
G1 X135.257 Y121.441 E0.02144
G1 X135.244 Y121.103 E0.01061
G1 X135.651 Y119.127 E0.06323
G1 X135.900 Y117.413 E0.05430
G1 X136.045 Y115.918 E0.04712
G1 X136.045 Y115.424 E0.01548
G1 X136.062 Y115.284 E0.00443
G1 X136.180 Y114.800 E0.01561
G1 X136.342 Y113.464 E0.04221
G1 X136.554 Y112.268 E0.03808
G1 X136.637 Y111.984 E0.00927
G1 X137.296 Y110.260 E0.05788
G1 X137.801 Y109.068 E0.04059
G1 X138.334 Y107.606 E0.04878
G1 X138.518 Y107.361 E0.00960
G1 X138.468 Y107.149 E0.00685
G1 X138.512 Y106.909 E0.00763
G1 X138.580 Y106.739 E0.00577
G1 X138.623 Y105.295 E0.04528
G1 X138.592 Y104.612 E0.02143
G1 X138.630 Y103.896 E0.02249
G1 X138.625 Y103.231 E0.02085
G1 X138.572 Y102.461 E0.02421
G1 X138.146 Y101.968 E0.02041
G1 X138.105 Y101.868 E0.00341
G1 X137.813 Y101.600 E0.01242
G1 X137.604 Y101.530 E0.00692
G1 X136.909 Y101.179 E0.02442
G1 X136.726 Y101.050 E0.00699
G1 X134.207 Y99.605 E0.09107
G1 X133.120 Y98.777 E0.04285
G1 X132.570 Y98.460 E0.01991
G1 X131.974 Y98.026 E0.02310
G1 X130.968 Y97.226 E0.04030
G1 X130.199 Y96.643 E0.03028
G1 X129.130 Y95.952 E0.03991
G1 X128.376 Y95.389 E0.02949
G1 X128.097 Y95.145 E0.01161
G1 X127.826 Y94.849 E0.01259
G1 X127.555 Y94.608 E0.01137
G1 X127.225 Y94.180 E0.01696
G1 X126.836 Y93.726 E0.01874
G1 X125.695 Y92.145 E0.06112
G1 X125.136 Y91.232 E0.03358
G1 X125.071 Y91.081 E0.00514
G1 X125.011 Y91.012 E0.00290
G1 X124.741 Y90.462 E0.01920
G1 X124.175 Y89.916 E0.02466
G1 X122.732 Y89.479 E0.04727
G1 X121.711 Y88.986 E0.03556
G1 X120.684 Y88.826 E0.03256
G1 X119.921 Y88.615 E0.02484
G1 X119.800 Y88.474 E0.00581
G1 X119.872 Y88.233 E0.00787
G1 X120.191 Y87.512 E0.02473
G1 X120.142 Y86.700 E0.02550
G1 X119.875 Y86.114 E0.02018
G1 X119.337 Y85.124 E0.03534
G1 X119.219 Y85.119 E0.00371
G1 X118.971 Y84.776 E0.01329
G1 X118.769 Y84.629 E0.00781
G1 X118.397 Y84.413 E0.01349
G1 X117.772 Y84.388 E0.01962
G1 X117.458 Y84.468 E0.01017
G1 X116.607 Y84.870 E0.02951
G1 X116.360 Y84.704 E0.00932
G1 X116.264 Y84.664 E0.00327
G1 X115.831 Y84.363 E0.01655
G1 X115.500 Y84.225 E0.01123
G1 X115.238 Y84.227 E0.00822
G1 X114.612 Y84.272 E0.01967
G1 X114.348 Y84.327 E0.00847
G1 X114.046 Y84.446 E0.01015
G1 X113.050 Y84.671 E0.03202
G1 X112.524 Y84.737 E0.01662
G1 X112.365 Y84.777 E0.00514
G1 X112.117 Y84.774 E0.00777
G1 X111.845 Y84.592 E0.01027
G1 X111.570 Y84.227 E0.01432
G1 X110.337 Y83.256 E0.04922
G1 X110.074 Y82.961 E0.01239
G1 X109.850 Y82.841 E0.00795
G1 X109.370 Y82.479 E0.01885
G1 X107.422 Y80.774 E0.08119
G1 X107.189 Y80.538 E0.01039
G1 X106.949 Y80.174 E0.01367
G1 X106.377 Y79.441 E0.02913
G1 X106.285 Y79.279 E0.00585
G1 X105.532 Y77.327 E0.06558
G1 X105.501 Y77.157 E0.00544
G1 X105.876 Y76.670 E0.01927
G1 X106.254 Y76.308 E0.01639
G1 X106.376 Y76.228 E0.00459
G1 X107.648 Y75.795 E0.04211
G1 X108.104 Y75.579 E0.01583
G1 X108.955 Y75.318 E0.02790
G1 X109.500 Y75.212 E0.01742
G1 X110.484 Y74.635 E0.03576
G1 X111.213 Y73.308 E0.04747
G1 X111.475 Y73.126 E0.00999
G1 X111.802 Y72.626 E0.01875
G1 X112.073 Y72.459 E0.00998
G1 X112.223 Y72.287 E0.00715
G1 X112.427 Y72.107 E0.00854
G1 X112.539 Y71.929 E0.00659
G1 X112.802 Y71.731 E0.01034
G1 X113.334 Y71.996 E0.01862
G1 X114.454 Y72.818 E0.04356
G1 X114.999 Y73.256 E0.02191
G1 X115.895 Y73.633 E0.03047
G1 X116.301 Y73.775 E0.01350
G1 X116.690 Y73.858 E0.01246
G1 X116.972 Y73.984 E0.00968
G1 X117.481 Y74.324 E0.01920
G1 X117.741 Y74.409 E0.00856
G1 X118.303 Y74.559 E0.01825
G1 X118.720 Y74.513 E0.01316
G1 X119.538 Y74.619 E0.02586
G1 X120.136 Y74.754 E0.01923
G1 X120.809 Y75.109 E0.02385
G1 X121.187 Y75.405 E0.01507
G1 X121.568 Y75.830 E0.01787
G1 X121.772 Y76.137 E0.01154
G1 X121.909 Y76.486 E0.01178
G1 X122.261 Y76.934 E0.01785
G1 X122.398 Y77.169 E0.00855
G1 X122.795 Y77.572 E0.01773
G1 X122.346 Y78.603 E0.03525
G1 X122.155 Y79.241 E0.02090
G1 X122.245 Y79.700 E0.01468
G1 X122.538 Y80.056 E0.01443
G1 X122.611 Y80.108 E0.00281
G1 X122.777 Y80.327 E0.00863
G1 X124.448 Y80.977 E0.05622
G1 X124.511 Y80.970 E0.00199
G1 X124.883 Y81.147 E0.01293
G1 X125.595 Y81.543 E0.02552
G1 X125.970 Y81.692 E0.01267
G1 X126.435 Y81.979 E0.01713
G1 X127.130 Y82.368 E0.02498
G1 X127.953 Y82.685 E0.02765
G1 X128.627 Y83.050 E0.02403
G1 X129.310 Y83.354 E0.02344
G1 X129.918 Y83.667 E0.02143
G1 X130.376 Y83.858 E0.01556
G1 X131.887 Y84.625 E0.05313
G1 X133.073 Y85.556 E0.04728
G1 X133.214 Y85.634 E0.00504
G1 X133.971 Y86.415 E0.03413
G1 X134.584 Y87.294 E0.03358
G1 X135.067 Y88.178 E0.03161
G1 X135.186 Y88.446 E0.00918
G1 X135.666 Y89.064 E0.02453
G1 X135.788 Y89.276 E0.00765
G1 X136.039 Y89.907 E0.02132
G1 X136.389 Y90.605 E0.02446
G1 X136.539 Y90.745 E0.00646
G1 X136.830 Y91.132 E0.01518
G1 X137.354 Y91.475 E0.01963
G1 X137.467 Y91.522 E0.00384
G1 X137.557 Y91.650 E0.00492
G1 X137.643 Y91.721 E0.00348
G1 X138.134 Y92.300 E0.02381
G1 X138.637 Y92.613 E0.01857
G1 X138.853 Y92.657 E0.00690
G1 X138.929 Y92.690 E0.00261
G1 X138.969 Y92.863 E0.00557
G1 X139.289 Y93.339 E0.01798
G1 X139.699 Y93.565 E0.01468
G1 X140.033 Y93.611 E0.01056
G1 X140.427 Y93.763 E0.01325
G1 X141.179 Y93.859 E0.02379
G1 X142.866 Y93.956 E0.05297
G1 X143.259 Y93.999 E0.01238
G1 X144.522 Y94.391 E0.04149
G1 X143.811 Y110.231 E0.49716
G1 X142.938 Y111.685 E0.05316
G1 X142.297 Y113.100 E0.04870
G1 X142.071 Y113.705 E0.02024
G1 X141.000 Y115.817 E0.07425
G1 X140.699 Y116.316 E0.01827
G1 X140.630 Y116.498 E0.00611
G1 X140.505 Y116.656 E0.00631
G1 X139.847 Y117.921 E0.04470
G1 X139.386 Y119.036 E0.03783
G1 X138.745 Y120.364 E0.04623
G1 X138.166 Y122.941 E0.08281
G1 X137.730 Y125.025 E0.06678
G1 X137.690 Y125.306 E0.00890
G1 X137.565 Y126.430 E0.03545
G1 X137.568 Y127.998 E0.04917
G1 X137.536 Y129.181 E0.03710
G1 X137.499 Y129.440 E0.00819
G1 X137.498 Y130.355 E0.02870
G1 X137.448 Y130.754 E0.01262
G1 X137.394 Y131.942 E0.03728
G1 X137.279 Y132.823 E0.02786
G1 X137.196 Y133.165 E0.01102
G1 X137.041 Y134.144 E0.03108
G1 X136.899 Y134.593 E0.01479
G1 X136.481 Y136.463 E0.06007
G1 X136.440 Y136.882 E0.01320
G1 X136.356 Y137.392 E0.01619
G1 X136.291 Y137.580 E0.00625
G1 X130.328 Y137.580 E0.18697
G1 X130.641 Y136.992 E0.02088
G1 X130.739 Y136.512 E0.01539
G1 X130.732 Y136.342 E0.00532
G1 X130.794 Y136.177 E0.00554
G1 X130.937 Y135.363 E0.02591
G1 X130.919 Y134.699 E0.02080
G1 X131.080 Y134.572 E0.00642
G1 X131.243 Y134.387 E0.00773
G1 X131.475 Y134.036 E0.01320
G1 X131.688 Y133.668 E0.01334
G1 X131.726 Y133.512 E0.00504
