; generated by PrusaSlicer 2.2.0+ on 2020-08-01 at 04:03:25 UTC

; 

; external perimeters extrusion width = 0.45mm
; perimeters extrusion width = 0.45mm
; infill extrusion width = 0.45mm
; solid infill extrusion width = 0.45mm
; top infill extrusion width = 0.40mm
; first layer extrusion width = 0.42mm

M73 P0 R78
M73 Q0 S78
M201 X1000 Y1000 Z200 E5000 ; sets maximum accelerations, mm/sec^2
M203 X200 Y200 Z12 E120 ; sets maximum feedrates, mm/sec
M204 P1250 R1250 T1250 ; sets acceleration (P, T) and retract acceleration (R), mm/sec^2
M205 X8.00 Y8.00 Z0.40 E4.50 ; sets the jerk limits, mm/sec
M205 S0 T0 ; sets the minimum extruding and travel feed rate, mm/sec
M107
M862.3 P "MK3S" ; printer model check
M862.1 P0.4 ; nozzle diameter check
M115 U3.9.0 ; tell printer latest fw version
G90 ; use absolute coordinates
M83 ; extruder relative mode
M104 S215 ; set extruder temp
M140 S60 ; set bed temp
M190 S60 ; wait for bed temp
M109 S215 ; wait for extruder temp
G28 W ; home all without mesh bed level
G80 ; mesh bed leveling
G1 Y-3.0 F1000.0 ; go outside print area
G92 E0.0
G1 X60.0 E9.0 F1000.0 ; intro line
M73 Q0 S78
M73 P0 R77
G1 X100.0 E12.5 F1000.0 ; intro line
G92 E0.0
M221 S100
G21 ; set units to millimeters
G90 ; use absolute coordinates
M83 ; use relative distances for extrusion
M900 K0.06 ; Filament gcode LA 1.5
M900 K30 ; Filament gcode LA 1.0
;BEFORE_LAYER_CHANGE
G92 E0.0
;0.2


G1 E-0.80000 F2100.00000
G1 Z0.600 F10800.000
;AFTER_LAYER_CHANGE
;0.2
G1 X110.786 Y80.341
G1 Z0.200
G1 E0.80000 F2100.00000
M204 S500
G1 F1200.000
G1 X119.597 Y80.297 E0.27626
G1 X120.141 Y80.384 E0.01728
G1 X140.136 Y86.201 E0.65293
G1 X143.113 Y87.386 E0.10044
G1 X143.679 Y87.811 E0.02220
G1 X144.025 Y88.190 E0.01609
G1 X145.471 Y90.378 E0.08222
G1 X145.733 Y90.976 E0.02048
G1 X145.873 Y91.778 E0.02554
G1 X145.959 Y95.624 E0.12061
G1 X145.795 Y96.902 E0.04038
G1 X145.620 Y97.400 E0.01657
G1 X142.252 Y104.262 E0.23967
G1 X141.452 Y105.398 E0.04356
G1 X130.437 Y117.225 E0.50676
G1 X121.189 Y125.043 E0.37969
G1 X119.322 Y126.200 E0.06886
G1 X114.483 Y128.747 E0.17145
G1 X113.063 Y129.314 E0.04796
G1 X111.732 Y129.623 E0.04284
G1 X110.930 Y129.655 E0.02516
G1 X109.460 Y129.473 E0.04643
G1 X106.875 Y128.957 E0.08267
G1 X106.391 Y128.806 E0.01588
G1 X105.700 Y128.456 E0.02428
G1 X105.121 Y128.021 E0.02272
G1 X104.371 Y126.923 E0.04170
G1 X104.115 Y126.137 E0.02590
G1 X103.956 Y108.199 E0.56245
G1 X108.938 Y82.137 E0.83195
G1 X109.184 Y81.504 E0.02130
G1 X109.596 Y80.968 E0.02119
G1 X110.146 Y80.569 E0.02130
G1 X110.729 Y80.361 E0.01942
M204 S1000
G1 F8640.000
G1 X114.021 Y80.337 E-0.76000
G1 E-0.04000 F2100.00000
G1 Z0.800 F10800.000
G1 X112.602 Y83.834
G1 Z0.200
G1 E0.80000 F2100.00000
M204 S500
G1 F1200.000
G1 X118.480 Y83.836 E0.18430
G1 X118.472 Y84.324 E0.01532
G1 X118.264 Y85.320 E0.03189
G1 X118.261 Y85.645 E0.01019
G1 X118.306 Y85.905 E0.00827
G1 X118.278 Y86.367 E0.01453
G1 X118.246 Y86.429 E0.00219
G1 X118.023 Y86.674 E0.01038
G1 X117.916 Y86.984 E0.01027
G1 X117.636 Y87.548 E0.01975
G1 X117.429 Y88.276 E0.02372
G1 X116.742 Y89.351 E0.04000
G1 X116.510 Y90.260 E0.02943
G1 X116.175 Y90.853 E0.02133
G1 X115.990 Y91.768 E0.02928
G1 X115.914 Y92.581 E0.02559
G1 X115.861 Y92.907 E0.01037
G1 X115.844 Y93.409 E0.01573
G1 X115.781 Y93.917 E0.01607
G1 X115.298 Y95.917 E0.06452
G1 X115.247 Y96.216 E0.00951
G1 X115.064 Y96.871 E0.02130
G1 X114.861 Y97.804 E0.02995
G1 X114.797 Y98.425 E0.01959
G1 X114.686 Y98.920 E0.01590
G1 X114.866 Y99.782 E0.02760
G1 X114.864 Y100.292 E0.01600
G1 X114.817 Y101.102 E0.02545
G1 X114.577 Y103.290 E0.06901
G1 X114.480 Y104.864 E0.04944
G1 X114.541 Y105.701 E0.02632
G1 X114.539 Y106.001 E0.00940
G1 X114.689 Y107.227 E0.03872
G1 X114.725 Y108.228 E0.03143
G1 X114.654 Y109.219 E0.03114
G1 X114.449 Y110.009 E0.02559
G1 X114.399 Y110.432 E0.01334
G1 X114.064 Y111.930 E0.04814
G1 X114.135 Y112.536 E0.01912
G1 X114.450 Y113.038 E0.01856
G1 X114.985 Y113.453 E0.02125
G1 X115.725 Y113.472 E0.02320
G1 X116.266 Y113.214 E0.01880
G1 X117.095 Y112.483 E0.03467
G1 X117.952 Y111.566 E0.03935
G1 X118.397 Y111.138 E0.01933
G1 X118.573 Y110.922 E0.00874
G1 X119.188 Y110.394 E0.02541
G1 X120.155 Y109.289 E0.04605
G1 X120.394 Y109.042 E0.01078
G1 X121.215 Y108.271 E0.03533
G1 X121.499 Y108.027 E0.01173
G1 X121.603 Y107.969 E0.00372
G1 X123.180 Y107.213 E0.05484
G1 X123.622 Y106.699 E0.02125
G1 X124.230 Y105.739 E0.03562
G1 X124.508 Y105.204 E0.01892
G1 X125.124 Y104.358 E0.03282
G1 X125.748 Y103.085 E0.04442
G1 X126.711 Y101.844 E0.04926
G1 X127.130 Y101.480 E0.01743
G1 X127.461 Y101.109 E0.01559
G1 X127.659 Y100.638 E0.01600
G1 X128.048 Y100.771 E0.01288
G1 X128.418 Y100.597 E0.01283
G1 X128.706 Y100.577 E0.00904
G1 X129.341 Y99.892 E0.02929
G1 X129.487 Y99.254 E0.02053
G1 X129.497 Y98.701 E0.01733
G1 X129.396 Y97.989 E0.02256
G1 X129.445 Y97.285 E0.02213
G1 X129.651 Y96.711 E0.01911
G1 X129.702 Y96.253 E0.01444
G1 X129.819 Y95.791 E0.01495
G1 X130.154 Y94.794 E0.03299
G1 X130.655 Y93.673 E0.03849
G1 X131.236 Y92.684 E0.03595
G1 X131.480 Y92.346 E0.01307
G1 X132.504 Y90.590 E0.06376
G1 X132.622 Y90.461 E0.00549
G1 X133.111 Y90.200 E0.01738
G1 X133.321 Y89.983 E0.00944
G1 X133.938 Y89.506 E0.02445
G1 X134.101 Y89.628 E0.00638
G1 X134.737 Y89.829 E0.02092
G1 X135.362 Y89.903 E0.01973
G1 X135.753 Y89.867 E0.01232
G1 X135.953 Y89.813 E0.00649
G1 X137.044 Y89.684 E0.03444
G1 X137.446 Y89.579 E0.01303
G1 X137.947 Y89.482 E0.01599
G1 X138.466 Y89.420 E0.01641
G1 X138.999 Y89.561 E0.01727
G1 X139.796 Y90.006 E0.02862
G1 X140.515 Y90.218 E0.02350
G1 X140.952 Y90.518 E0.01663
G1 X140.926 Y90.816 E0.00936
G1 X141.227 Y91.510 E0.02373
G1 X141.619 Y91.870 E0.01669
G1 X141.998 Y92.062 E0.01331
G1 X142.155 Y92.103 E0.00511
G1 X142.000 Y92.718 E0.01987
G1 X141.905 Y92.926 E0.00718
G1 X141.938 Y93.521 E0.01869
G1 X141.792 Y93.909 E0.01301
G1 X141.801 Y94.661 E0.02356
G1 X141.975 Y95.204 E0.01788
G1 X142.314 Y95.503 E0.01419
G1 X142.355 Y95.632 E0.00425
G1 X142.334 Y95.955 E0.01012
G1 X141.808 Y96.570 E0.02540
G1 X140.812 Y97.595 E0.04480
G1 X140.375 Y98.880 E0.04255
G1 X140.331 Y99.081 E0.00644
G1 X140.140 Y99.417 E0.01211
G1 X139.548 Y100.278 E0.03277
G1 X139.477 Y100.581 E0.00975
G1 X139.402 Y100.787 E0.00687
G1 X139.284 Y100.955 E0.00645
G1 X139.080 Y102.618 E0.05254
G1 X139.065 Y102.674 E0.00181
G1 X138.788 Y103.056 E0.01480
G1 X138.637 Y103.153 E0.00563
G1 X138.321 Y103.269 E0.01053
G1 X137.813 Y103.384 E0.01633
G1 X137.441 Y103.605 E0.01357
G1 X136.719 Y104.153 E0.02843
G1 X136.668 Y104.209 E0.00237
G1 X135.681 Y103.811 E0.03335
G1 X135.266 Y103.736 E0.01324
G1 X134.687 Y103.773 E0.01818
G1 X134.220 Y103.952 E0.01569
G1 X133.664 Y104.527 E0.02507
G1 X133.469 Y104.895 E0.01306
G1 X133.391 Y105.109 E0.00714
G1 X132.652 Y106.102 E0.03884
G1 X132.121 Y107.190 E0.03794
G1 X132.013 Y107.577 E0.01259
G1 X131.872 Y107.851 E0.00969
G1 X131.486 Y108.903 E0.03512
G1 X130.781 Y110.392 E0.05165
G1 X130.070 Y111.713 E0.04704
G1 X129.911 Y112.121 E0.01375
G1 X129.393 Y112.970 E0.03117
G1 X128.139 Y114.507 E0.06220
G1 X127.993 Y114.659 E0.00660
G1 X127.488 Y115.064 E0.02030
G1 X127.103 Y115.320 E0.01449
G1 X126.514 Y115.754 E0.02294
G1 X125.684 Y116.222 E0.02989
G1 X125.166 Y116.565 E0.01948
G1 X124.548 Y117.121 E0.02607
G1 X124.153 Y117.434 E0.01580
G1 X124.054 Y117.556 E0.00490
G1 X123.710 Y117.809 E0.01341
G1 X123.626 Y117.917 E0.00431
G1 X123.440 Y118.081 E0.00776
G1 X122.946 Y118.437 E0.01909
G1 X122.248 Y118.869 E0.02575
G1 X122.202 Y119.067 E0.00635
G1 X122.097 Y119.178 E0.00481
G1 X121.715 Y119.540 E0.01648
G1 X121.102 Y120.068 E0.02537
G1 X120.925 Y120.171 E0.00644
G1 X120.548 Y120.605 E0.01801
G1 X120.357 Y120.904 E0.01114
G1 X120.186 Y121.122 E0.00867
G1 X119.635 Y121.676 E0.02450
G1 X119.346 Y121.920 E0.01186
G1 X118.714 Y122.284 E0.02286
G1 X117.498 Y123.057 E0.04520
G1 X116.698 Y123.418 E0.02753
G1 X116.204 Y123.710 E0.01797
G1 X114.763 Y124.365 E0.04966
G1 X114.344 Y124.613 E0.01525
G1 X113.628 Y125.127 E0.02762
G1 X112.853 Y125.599 E0.02847
G1 X112.143 Y125.884 E0.02399
G1 X111.228 Y126.056 E0.02919
G1 X111.102 Y126.113 E0.00433
G1 X110.070 Y125.983 E0.03261
G1 X109.339 Y125.810 E0.02354
G1 X109.342 Y125.710 E0.00314
G1 X108.022 Y125.499 E0.04193
G1 X107.688 Y125.498 E0.01045
G1 X107.630 Y125.466 E0.00207
G1 X107.498 Y108.637 E0.52767
G1 X107.814 Y108.136 E0.01857
G1 X108.143 Y107.559 E0.02084
G1 X108.291 Y107.397 E0.00688
G1 X108.576 Y106.967 E0.01616
G1 X108.717 Y106.584 E0.01282
G1 X109.198 Y105.698 E0.03159
G1 X109.544 Y105.117 E0.02121
G1 X109.606 Y104.958 E0.00537
G1 X109.768 Y104.726 E0.00885
G1 X110.096 Y103.979 E0.02558
G1 X110.735 Y102.390 E0.05372
G1 X110.815 Y102.107 E0.00920
G1 X110.962 Y101.703 E0.01350
G1 X111.101 Y101.383 E0.01092
G1 X111.326 Y100.637 E0.02445
G1 X111.792 Y99.331 E0.04347
G1 X111.817 Y99.114 E0.00684
G1 X111.870 Y98.940 E0.00571
G1 X112.090 Y98.544 E0.01419
G1 X112.584 Y96.300 E0.07207
G1 X112.593 Y96.162 E0.00431
G1 X112.785 Y95.237 E0.02962
G1 X112.794 Y94.949 E0.00904
G1 X112.939 Y94.196 E0.02404
G1 X113.033 Y93.074 E0.03531
G1 X113.036 Y90.185 E0.09059
G1 X113.061 Y89.839 E0.01088
G1 X112.939 Y87.478 E0.07412
G1 X112.779 Y86.037 E0.04546
G1 X112.706 Y85.634 E0.01284
G1 X112.637 Y85.066 E0.01795
G1 X112.604 Y83.894 E0.03674
M204 S1000
G1 X112.194 Y83.449 F10800.000
M204 S500
G1 F1200.000
G1 X118.956 Y83.459 E0.21202
G1 X118.938 Y83.657 E0.00625
G1 X118.857 Y83.844 E0.00638
G1 X118.848 Y84.378 E0.01675
G1 X118.641 Y85.359 E0.03143
G1 X118.638 Y85.615 E0.00802
G1 X118.685 Y85.884 E0.00856
G1 X118.650 Y86.471 E0.01846
G1 X118.557 Y86.647 E0.00623
G1 X118.354 Y86.871 E0.00947
G1 X118.264 Y87.130 E0.00861
G1 X117.989 Y87.685 E0.01940
G1 X117.774 Y88.444 E0.02475
G1 X117.093 Y89.500 E0.03939
G1 X116.856 Y90.413 E0.02958
G1 X116.533 Y90.986 E0.02062
G1 X116.364 Y91.823 E0.02678
G1 X116.288 Y92.628 E0.02535
G1 X116.238 Y92.944 E0.01002
G1 X116.221 Y93.438 E0.01552
G1 X116.153 Y93.985 E0.01727
G1 X115.667 Y95.993 E0.06477
G1 X115.616 Y96.299 E0.00972
G1 X115.430 Y96.962 E0.02158
G1 X115.234 Y97.864 E0.02894
G1 X115.169 Y98.486 E0.01962
G1 X115.072 Y98.923 E0.01404
G1 X115.243 Y99.743 E0.02628
G1 X115.241 Y100.304 E0.01757
G1 X115.193 Y101.134 E0.02608
G1 X114.953 Y103.322 E0.06903
G1 X114.858 Y104.862 E0.04836
G1 X114.918 Y105.689 E0.02599
G1 X114.916 Y105.979 E0.00910
G1 X115.066 Y107.197 E0.03847
G1 X115.103 Y108.235 E0.03258
G1 X115.028 Y109.281 E0.03286
G1 X114.820 Y110.079 E0.02586
G1 X114.772 Y110.495 E0.01314
G1 X114.446 Y111.950 E0.04675
G1 X114.500 Y112.408 E0.01445
G1 X114.733 Y112.780 E0.01380
G1 X115.119 Y113.079 E0.01527
G1 X115.644 Y113.092 E0.01649
G1 X116.056 Y112.896 E0.01431
G1 X116.832 Y112.212 E0.03244
G1 X117.684 Y111.301 E0.03909
G1 X118.119 Y110.882 E0.01893
G1 X118.297 Y110.664 E0.00883
G1 X118.536 Y110.440 E0.01028
G1 X118.925 Y110.122 E0.01574
G1 X119.877 Y109.034 E0.04534
G1 X120.128 Y108.773 E0.01136
G1 X120.963 Y107.990 E0.03590
G1 X121.282 Y107.716 E0.01318
G1 X121.429 Y107.634 E0.00528
G1 X122.946 Y106.907 E0.05273
G1 X123.318 Y106.474 E0.01791
G1 X123.903 Y105.551 E0.03425
G1 X124.187 Y105.005 E0.01930
G1 X124.800 Y104.162 E0.03268
G1 X125.426 Y102.885 E0.04461
G1 X126.435 Y101.583 E0.05163
G1 X126.865 Y101.211 E0.01783
G1 X127.138 Y100.904 E0.01286
G1 X127.375 Y100.341 E0.01916
G1 X127.387 Y100.191 E0.00472
G1 X127.606 Y100.222 E0.00696
G1 X128.025 Y100.365 E0.01389
G1 X128.322 Y100.225 E0.01026
G1 X128.531 Y100.211 E0.00657
G1 X128.996 Y99.709 E0.02145
G1 X129.111 Y99.206 E0.01620
G1 X129.119 Y98.726 E0.01504
G1 X129.017 Y98.002 E0.02294
G1 X129.073 Y97.206 E0.02501
G1 X129.281 Y96.625 E0.01935
G1 X129.330 Y96.186 E0.01387
G1 X129.457 Y95.686 E0.01615
G1 X129.679 Y95.002 E0.02256
G1 X129.804 Y94.653 E0.01161
G1 X130.319 Y93.500 E0.03960
G1 X130.920 Y92.478 E0.03717
G1 X131.163 Y92.141 E0.01305
G1 X132.195 Y90.371 E0.06422
G1 X132.409 Y90.147 E0.00971
G1 X132.882 Y89.895 E0.01681
G1 X133.069 Y89.702 E0.00844
G1 X133.807 Y89.131 E0.02925
G1 X134.030 Y89.105 E0.00703
G1 X134.275 Y89.288 E0.00960
G1 X134.817 Y89.458 E0.01780
G1 X135.367 Y89.523 E0.01738
G1 X135.687 Y89.495 E0.01005
G1 X135.881 Y89.442 E0.00632
G1 X136.974 Y89.312 E0.03449
G1 X137.362 Y89.211 E0.01260
G1 X137.889 Y89.109 E0.01680
G1 X138.493 Y89.037 E0.01910
G1 X139.141 Y89.209 E0.02101
G1 X139.943 Y89.656 E0.02879
G1 X140.679 Y89.873 E0.02406
G1 X141.275 Y90.282 E0.02265
G1 X141.314 Y90.270 E0.00128
G1 X141.350 Y90.304 E0.00156
G1 X141.310 Y90.754 E0.01417
G1 X141.541 Y91.286 E0.01820
G1 X141.836 Y91.557 E0.01255
G1 X142.133 Y91.707 E0.01044
G1 X142.563 Y91.821 E0.01396
G1 X142.637 Y91.890 E0.00317
G1 X142.552 Y92.075 E0.00638
G1 X142.357 Y92.843 E0.02486
G1 X142.287 Y92.998 E0.00533
G1 X142.319 Y93.579 E0.01826
G1 X142.170 Y93.976 E0.01328
G1 X142.177 Y94.600 E0.01956
G1 X142.302 Y94.990 E0.01285
G1 X142.641 Y95.289 E0.01418
G1 X142.744 Y95.608 E0.01050
G1 X142.702 Y96.104 E0.01562
G1 X142.086 Y96.824 E0.02970
G1 X141.142 Y97.797 E0.04251
G1 X140.739 Y98.982 E0.03924
G1 X140.687 Y99.217 E0.00756
G1 X140.460 Y99.617 E0.01439
G1 X139.899 Y100.433 E0.03107
G1 X139.839 Y100.688 E0.00822
G1 X139.739 Y100.962 E0.00913
G1 X139.647 Y101.093 E0.00502
G1 X139.448 Y102.698 E0.05071
G1 X139.411 Y102.838 E0.00454
G1 X139.061 Y103.321 E0.01870
G1 X138.806 Y103.493 E0.00967
G1 X138.428 Y103.631 E0.01259
G1 X137.955 Y103.739 E0.01522
G1 X137.652 Y103.918 E0.01104
G1 X136.974 Y104.433 E0.02669
G1 X136.769 Y104.656 E0.00949
G1 X135.576 Y104.175 E0.04034
G1 X135.244 Y104.115 E0.01059
G1 X134.768 Y104.145 E0.01494
G1 X134.433 Y104.274 E0.01126
G1 X133.972 Y104.751 E0.02078
G1 X133.814 Y105.048 E0.01057
G1 X133.726 Y105.289 E0.00804
G1 X132.975 Y106.299 E0.03947
G1 X132.475 Y107.325 E0.03576
G1 X132.366 Y107.715 E0.01271
G1 X132.218 Y108.003 E0.01015
G1 X131.834 Y109.049 E0.03493
G1 X131.118 Y110.562 E0.05249
G1 X130.413 Y111.871 E0.04662
G1 X130.250 Y112.289 E0.01407
G1 X129.702 Y113.188 E0.03302
G1 X128.422 Y114.757 E0.06347
G1 X128.249 Y114.938 E0.00784
G1 X127.711 Y115.369 E0.02161
G1 X127.320 Y115.629 E0.01474
G1 X126.719 Y116.071 E0.02337
G1 X125.881 Y116.544 E0.03018
G1 X125.398 Y116.864 E0.01818
G1 X124.792 Y117.410 E0.02557
G1 X124.420 Y117.704 E0.01488
G1 X124.317 Y117.831 E0.00512
G1 X123.975 Y118.081 E0.01327
G1 X123.902 Y118.176 E0.00377
G1 X123.675 Y118.376 E0.00947
G1 X123.156 Y118.750 E0.02008
G1 X122.580 Y119.107 E0.02124
G1 X122.546 Y119.251 E0.00462
G1 X122.364 Y119.445 E0.00834
G1 X121.967 Y119.821 E0.01716
G1 X121.351 Y120.360 E0.02567
G1 X121.168 Y120.465 E0.00661
G1 X120.851 Y120.831 E0.01518
G1 X120.664 Y121.123 E0.01085
G1 X120.469 Y121.372 E0.00992
G1 X119.891 Y121.954 E0.02572
G1 X119.564 Y122.230 E0.01344
G1 X118.911 Y122.606 E0.02360
G1 X117.885 Y123.272 E0.03836
G1 X117.669 Y123.394 E0.00779
G1 X116.872 Y123.753 E0.02741
G1 X116.379 Y124.045 E0.01795
G1 X114.937 Y124.700 E0.04965
G1 X114.551 Y124.929 E0.01409
G1 X113.837 Y125.441 E0.02755
G1 X113.022 Y125.937 E0.02989
G1 X112.237 Y126.253 E0.02653
G1 X111.344 Y126.417 E0.02848
G1 X111.178 Y126.492 E0.00571
G1 X111.109 Y126.494 E0.00217
G1 X110.003 Y126.355 E0.03495
G1 X108.954 Y126.106 E0.03380
G1 X108.956 Y126.030 E0.00240
G1 X107.993 Y125.876 E0.03057
G1 X107.573 Y125.863 E0.01317
G1 X107.367 Y125.756 E0.00730
G1 X107.254 Y125.576 E0.00666
G1 X107.120 Y108.530 E0.53449
G1 X107.490 Y107.942 E0.02178
G1 X107.836 Y107.336 E0.02187
G1 X107.992 Y107.164 E0.00728
G1 X108.237 Y106.795 E0.01389
G1 X108.373 Y106.428 E0.01228
G1 X108.870 Y105.512 E0.03268
G1 X109.204 Y104.951 E0.02046
G1 X109.271 Y104.779 E0.00581
G1 X109.438 Y104.541 E0.00911
G1 X109.748 Y103.833 E0.02422
G1 X110.378 Y102.268 E0.05290
G1 X110.456 Y101.992 E0.00900
G1 X110.611 Y101.563 E0.01429
G1 X110.746 Y101.253 E0.01060
G1 X110.968 Y100.519 E0.02405
G1 X111.423 Y99.245 E0.04241
G1 X111.447 Y99.037 E0.00655
G1 X111.521 Y98.792 E0.00803
G1 X111.733 Y98.409 E0.01373
G1 X112.210 Y96.246 E0.06945
G1 X112.219 Y96.111 E0.00424
G1 X112.409 Y95.193 E0.02942
G1 X112.418 Y94.907 E0.00896
G1 X112.565 Y94.145 E0.02435
G1 X112.656 Y93.058 E0.03419
G1 X112.659 Y90.171 E0.09051
