; generated by PrusaSlicer 2.2.0+ on 2020-08-03 at 18:22:03 UTC

; 

; external perimeters extrusion width = 0.45mm
; perimeters extrusion width = 0.45mm
; infill extrusion width = 0.45mm
; solid infill extrusion width = 0.45mm
; top infill extrusion width = 0.40mm
; support material extrusion width = 0.30mm
; first layer extrusion width = 0.42mm

M73 P0 R60
M73 Q0 S60
M201 X1000 Y1000 Z200 E5000 ; sets maximum accelerations, mm/sec^2
M203 X200 Y200 Z12 E120 ; sets maximum feedrates, mm/sec
M204 P1250 R1250 T1250 ; sets acceleration (P, T) and retract acceleration (R), mm/sec^2
M205 X8.00 Y8.00 Z0.40 E4.50 ; sets the jerk limits, mm/sec
M205 S0 T0 ; sets the minimum extruding and travel feed rate, mm/sec
M107
M862.3 P "MK3S" ; printer model check
M862.1 P0.4 ; nozzle diameter check
M115 U3.9.0 ; tell printer latest fw version
G90 ; use absolute coordinates
M83 ; extruder relative mode
M104 S215 ; set extruder temp
M140 S60 ; set bed temp
M190 S60 ; wait for bed temp
M109 S215 ; wait for extruder temp
G28 W ; home all without mesh bed level
G80 ; mesh bed leveling
G1 Y-3.0 F1000.0 ; go outside print area
G92 E0.0
G1 X60.0 E9.0 F1000.0 ; intro line
M73 Q0 S60
M73 P0 R60
G1 X100.0 E12.5 F1000.0 ; intro line
G92 E0.0
M221 S100

; Don't change E values below. Excessive value can damage the printer.
M907 E430 ; set extruder motor current
G21 ; set units to millimeters
G90 ; use absolute coordinates
M83 ; use relative distances for extrusion
M900 K0.06 ; Filament gcode LA 1.5
M900 K30 ; Filament gcode LA 1.0
;BEFORE_LAYER_CHANGE
G92 E0.0
;0.2


G1 E-0.80000 F2100.00000
G1 Z0.600 F10800.000
;AFTER_LAYER_CHANGE
;0.2
G1 X109.712 Y80.714
G1 Z0.200
G1 E0.80000 F2100.00000
M204 S500
G1 F1200.000
G1 X110.355 Y80.239 E0.02508
G1 X111.120 Y80.005 E0.02508
G1 X125.754 Y79.985 E0.45884
G1 X126.313 Y80.051 E0.01763
G1 X126.840 Y80.247 E0.01763
G1 X127.309 Y80.564 E0.01775
G1 X127.688 Y80.980 E0.01763
G1 X139.939 Y99.815 E0.70449
G1 X140.339 Y100.648 E0.02899
G1 X140.571 Y101.441 E0.02588
G1 X140.639 Y103.292 E0.05809
G1 X137.055 Y118.711 E0.49635
G1 X136.681 Y119.833 E0.03706
G1 X135.983 Y120.857 E0.03887
G1 X135.515 Y121.280 E0.01977
G1 X134.953 Y121.565 E0.01977
G1 X122.472 Y125.806 E0.41332
G1 X121.520 Y125.912 E0.03001
G1 X120.662 Y125.664 E0.02802
G1 X111.416 Y120.777 E0.32789
G1 X110.669 Y120.119 E0.03124
G1 X110.237 Y119.208 E0.03159
G1 X109.406 Y114.644 E0.14545
G1 X109.359 Y114.001 E0.02023
G1 X109.048 Y90.256 E0.74455
G1 X109.058 Y82.145 E0.25432
G1 X109.262 Y81.376 E0.02496
G1 X109.678 Y80.764 E0.02320
M204 S1000
G1 F8640.000
G1 X110.355 Y80.239 E-0.19782
G1 X111.120 Y80.005 E-0.18469
G1 X112.755 Y80.002 E-0.37749
G1 E-0.04000 F2100.00000
G1 Z0.800 F10800.000
G1 X125.754 Y89.262
G1 Z0.200
G1 E0.80000 F2100.00000
M204 S500
G1 F1200.000
G1 X125.754 Y82.362 E0.21636
G1 X125.000 Y82.362 E0.02365
G1 X125.000 Y88.818 E0.20242
G1 X124.407 Y88.797 E0.01859
G1 X124.278 Y88.722 E0.00469
G1 X124.246 Y88.734 E0.00109
G1 X124.246 Y82.362 E0.19978
G1 X123.492 Y82.362 E0.02365
G1 X123.492 Y89.090 E0.21095
G1 X123.296 Y89.200 E0.00703
G1 X123.133 Y89.322 E0.00640
G1 X123.073 Y89.394 E0.00294
G1 X122.738 Y90.050 E0.02312
G1 X122.738 Y82.362 E0.24107
G1 X121.983 Y82.362 E0.02365
G1 X121.983 Y93.253 E0.34148
G1 X121.485 Y93.737 E0.02178
G1 X121.229 Y93.842 E0.00867
G1 X121.229 Y82.362 E0.35994
G1 X120.475 Y82.362 E0.02365
G1 X120.475 Y94.066 E0.36696
G1 X120.346 Y94.102 E0.00422
G1 X119.721 Y94.182 E0.01975
G1 X119.721 Y82.362 E0.37061
G1 X118.967 Y82.362 E0.02365
G1 X118.967 Y94.477 E0.37985
G1 X118.489 Y94.662 E0.01605
G1 X118.313 Y94.800 E0.00702
G1 X118.213 Y94.923 E0.00498
G1 X118.213 Y82.362 E0.39384
G1 X117.458 Y82.362 E0.02365
G1 X117.458 Y95.614 E0.41550
G1 X116.911 Y95.879 E0.01907
G1 X116.704 Y96.008 E0.00764
G1 X116.704 Y82.362 E0.42786
G1 X115.950 Y82.362 E0.02365
G1 X115.950 Y96.583 E0.44589
G1 X115.220 Y97.220 E0.03038
G1 X115.196 Y97.220 E0.00076
G1 X115.196 Y82.362 E0.46587
G1 X114.442 Y82.362 E0.02365
G1 X114.442 Y90.063 E0.24147
G1 X113.688 Y90.063 E0.02365
G1 X113.688 Y82.362 E0.24147
G1 X112.933 Y82.362 E0.02365
G1 X112.933 Y90.063 E0.24147
G1 X112.179 Y90.063 E0.02365
G1 X112.179 Y82.362 E0.24147
G1 X111.425 Y82.362 E0.02365
G1 X111.425 Y90.233 E0.24679
M204 S1000
G1 F8640.000
G1 X111.425 Y86.942 E-0.76000
G1 E-0.04000 F2100.00000
G1 Z0.800 F10800.000
G1 X131.274 Y110.878
G1 Z0.200
G1 E0.80000 F2100.00000
M204 S500
G1 F1200.000
G1 X131.409 Y111.095 E0.00800
G1 X132.299 Y112.321 E0.04750
G1 X132.625 Y112.696 E0.01557
G1 X132.939 Y113.274 E0.02064
G1 X133.004 Y113.466 E0.00634
G1 X133.117 Y114.063 E0.01907
G1 X132.901 Y114.723 E0.02176
G1 X133.019 Y115.455 E0.02325
G1 X133.213 Y115.881 E0.01469
G1 X133.270 Y116.366 E0.01532
G1 X133.565 Y117.120 E0.02537
G1 X133.617 Y117.506 E0.01220
G1 X133.358 Y117.194 E0.01271
G1 X133.262 Y117.008 E0.00655
G1 X132.988 Y116.093 E0.02995
G1 X132.948 Y116.043 E0.00203
G1 X132.743 Y115.312 E0.02379
G1 X132.515 Y114.879 E0.01535
G1 X132.300 Y114.612 E0.01074
G1 X131.934 Y113.937 E0.02407
G1 X131.408 Y111.963 E0.06406
G1 X131.283 Y110.938 E0.03240
M204 S1000
G1 F8640.000
G1 X131.409 Y111.095 E-0.04658
G1 X132.299 Y112.321 E-0.34980
G1 X132.625 Y112.696 E-0.11467
G1 X132.939 Y113.274 E-0.15197
G1 X133.004 Y113.466 E-0.04671
G1 X133.044 Y113.680 E-0.05028
G1 E-0.04000 F2100.00000
G1 Z0.800 F10800.000
G1 X130.530 Y109.184
G1 Z0.200
G1 E0.80000 F2100.00000
M204 S500
G1 F1200.000
G1 X131.438 Y110.427 E0.04826
G1 X131.722 Y110.884 E0.01689
G1 X132.595 Y112.086 E0.04656
G1 X132.933 Y112.475 E0.01617
G1 X133.288 Y113.129 E0.02332
G1 X133.370 Y113.370 E0.00798
G1 X133.502 Y114.073 E0.02244
G1 X133.288 Y114.753 E0.02236
G1 X133.383 Y115.345 E0.01879
G1 X133.581 Y115.779 E0.01495
G1 X133.639 Y116.274 E0.01564
G1 X133.933 Y117.025 E0.02528
G1 X134.005 Y117.564 E0.01704
G1 X133.978 Y117.960 E0.01246
G1 X133.878 Y118.290 E0.01082
G1 X133.524 Y117.984 E0.01466
G1 X133.042 Y117.403 E0.02368
G1 X132.911 Y117.150 E0.00894
G1 X132.648 Y116.272 E0.02873
G1 X132.601 Y116.213 E0.00237
G1 X132.510 Y115.833 E0.01226
G1 X132.393 Y115.457 E0.01235
G1 X132.198 Y115.087 E0.01312
G1 X131.985 Y114.822 E0.01066
G1 X131.582 Y114.078 E0.02654
G1 X131.035 Y112.030 E0.06645
G1 X130.992 Y111.569 E0.01452
G1 X130.840 Y110.504 E0.03372
G1 X130.660 Y109.899 E0.01981
G1 X130.541 Y109.243 E0.02091
M204 S1000
G1 F8640.000
G1 X131.438 Y110.427 E-0.34301
G1 X131.722 Y110.884 E-0.12438
G1 X132.467 Y111.910 E-0.29261
G1 E-0.04000 F2100.00000
G1 Z0.800 F10800.000
G1 X136.878 Y101.865
G1 Z0.200
G1 E0.80000 F2100.00000
M204 S500
G1 F1200.000
G1 X136.214 Y101.478 E0.02410
G1 X136.049 Y101.343 E0.00667
G1 X135.122 Y100.463 E0.04008
G1 X134.950 Y100.254 E0.00848
G1 X133.755 Y99.597 E0.04275
G1 X133.668 Y99.515 E0.00375
G1 X133.536 Y99.176 E0.01141
G1 X133.507 Y98.341 E0.02621
G1 X134.077 Y98.498 E0.01853
G1 X134.651 Y98.716 E0.01928
G1 X134.887 Y98.910 E0.00957
G1 X136.178 Y100.912 E0.07469
G1 X136.846 Y101.814 E0.03519
M204 S1000
G1 X136.764 Y102.235 F10800.000
M204 S500
G1 F1200.000
G1 X135.998 Y101.789 E0.02778
G1 X135.799 Y101.626 E0.00805
G1 X134.846 Y100.721 E0.04123
G1 X134.705 Y100.550 E0.00694
G1 X133.531 Y99.904 E0.04203
G1 X133.348 Y99.730 E0.00792
G1 X133.161 Y99.231 E0.01670
G1 X133.104 Y97.961 E0.03987
G1 X133.507 Y97.940 E0.01266
G1 X134.194 Y98.139 E0.02243
G1 X134.824 Y98.378 E0.02111
G1 X135.172 Y98.656 E0.01397
G1 X136.489 Y100.698 E0.07618
G1 X136.963 Y101.345 E0.02513
G1 X137.092 Y101.495 E0.00623
G1 X137.330 Y101.879 E0.01416
G1 X137.467 Y102.382 E0.01636
G1 X137.483 Y102.994 E0.01920
G1 X137.390 Y103.395 E0.01289
G1 X137.147 Y103.775 E0.01416
G1 X137.099 Y103.576 E0.00641
G1 X137.101 Y103.317 E0.00813
G1 X137.017 Y102.833 E0.01539
G1 X136.941 Y102.579 E0.00832
G1 X136.821 Y102.416 E0.00634
G1 X136.782 Y102.292 E0.00408
M204 S1000
G1 F8640.000
G1 X135.998 Y101.789 E-0.21501
G1 X135.799 Y101.626 E-0.05928
G1 X134.846 Y100.721 E-0.30363
G1 X134.705 Y100.550 E-0.05109
G1 X134.208 Y100.277 E-0.13099
G1 E-0.04000 F2100.00000
G1 Z0.800 F10800.000
G1 X129.300 Y106.014
G1 Z0.200
G1 E0.80000 F2100.00000
M204 S500
G1 F1200.000
G1 X128.531 Y104.304 E0.05880
G1 X128.378 Y103.907 E0.01333
G1 X127.899 Y102.440 E0.04839
G1 X127.810 Y101.796 E0.02039
G1 X127.645 Y101.220 E0.01878
G1 X127.472 Y100.737 E0.01608
G1 X126.964 Y99.926 E0.03002
G1 X126.397 Y99.468 E0.02284
G1 X125.715 Y99.168 E0.02336
G1 X124.609 Y99.162 E0.03469
G1 X124.032 Y99.264 E0.01836
G1 X123.616 Y99.470 E0.01455
G1 X123.262 Y99.757 E0.01429
G1 X122.866 Y100.288 E0.02077
G1 X122.701 Y100.662 E0.01283
G1 X122.531 Y101.634 E0.03094
G1 X122.027 Y102.932 E0.04365
G1 X121.872 Y104.369 E0.04532
G1 X121.933 Y105.039 E0.02110
G1 X122.057 Y105.539 E0.01613
G1 X122.369 Y106.574 E0.03390
G1 X122.636 Y108.954 E0.07509
G1 X122.540 Y109.582 E0.01993
G1 X122.160 Y110.876 E0.04230
G1 X122.039 Y112.366 E0.04686
G1 X122.095 Y112.938 E0.01801
G1 X122.294 Y113.706 E0.02490
G1 X122.675 Y114.856 E0.03799
G1 X122.946 Y115.378 E0.01843
G1 X122.968 Y115.923 E0.01712
G1 X122.931 Y116.929 E0.03154
G1 X122.668 Y118.266 E0.04274
G1 X122.643 Y118.912 E0.02027
G1 X122.545 Y119.337 E0.01369
G1 X122.356 Y119.759 E0.01449
G1 X122.035 Y121.009 E0.04047
G1 X121.889 Y121.319 E0.01073
G1 X121.831 Y120.990 E0.01046
G1 X121.799 Y120.666 E0.01021
G1 X121.780 Y119.781 E0.02777
G1 X121.688 Y119.167 E0.01945
G1 X121.806 Y118.545 E0.01985
G1 X121.904 Y118.197 E0.01135
G1 X121.938 Y117.829 E0.01159
G1 X121.907 Y117.618 E0.00669
G1 X121.915 Y117.473 E0.00455
G1 X121.660 Y115.255 E0.07001
G1 X121.813 Y114.286 E0.03074
G1 X121.853 Y113.358 E0.02913
G1 X121.898 Y113.002 E0.01127
G1 X121.934 Y112.216 E0.02464
G1 X121.986 Y112.008 E0.00675
G1 X121.939 Y111.090 E0.02882
G1 X121.837 Y110.637 E0.01455
G1 X121.796 Y110.299 E0.01068
G1 X121.391 Y109.172 E0.03754
G1 X121.290 Y108.586 E0.01862
G1 X121.279 Y107.421 E0.03654
G1 X121.348 Y105.369 E0.06438
G1 X121.398 Y104.760 E0.01916
G1 X121.293 Y103.565 E0.03760
G1 X121.225 Y103.078 E0.01541
G1 X120.915 Y102.278 E0.02691
G1 X120.422 Y101.376 E0.03222
G1 X120.380 Y101.202 E0.00561
G1 X120.031 Y100.531 E0.02371
G1 X119.178 Y99.908 E0.03313
G1 X118.410 Y99.679 E0.02512
G1 X117.691 Y99.782 E0.02280
G1 X117.471 Y99.891 E0.00767
G1 X117.083 Y99.988 E0.01255
G1 X116.149 Y101.657 E0.05998
G1 X115.985 Y102.867 E0.03827
G1 X116.010 Y103.725 E0.02693
G1 X115.949 Y104.234 E0.01608
G1 X115.892 Y104.638 E0.01277
G1 X115.700 Y105.394 E0.02446
G1 X115.563 Y105.826 E0.01421
G1 X115.408 Y106.159 E0.01150
G1 X114.739 Y106.980 E0.03322
G1 X114.464 Y107.479 E0.01787
G1 X114.328 Y107.822 E0.01156
G1 X114.173 Y108.362 E0.01760
G1 X114.115 Y109.148 E0.02471
G1 X114.145 Y109.806 E0.02067
G1 X114.241 Y110.446 E0.02030
G1 X114.059 Y111.457 E0.03219
G1 X113.891 Y111.976 E0.01710
G1 X113.686 Y113.133 E0.03685
G1 X113.660 Y113.668 E0.01680
G1 X113.614 Y113.802 E0.00445
G1 X113.412 Y114.109 E0.01154
G1 X113.088 Y114.416 E0.01398
G1 X112.945 Y113.948 E0.01534
G1 X112.913 Y113.230 E0.02254
G1 X112.987 Y112.916 E0.01010
G1 X113.143 Y112.440 E0.01571
G1 X113.189 Y112.120 E0.01014
G1 X113.292 Y111.820 E0.00994
G1 X113.301 Y110.851 E0.03038
G1 X113.425 Y110.098 E0.02393
G1 X113.417 Y110.032 E0.00210
G1 X113.444 Y109.860 E0.00546
G1 X114.089 Y108.382 E0.05055
G1 X114.291 Y107.771 E0.02017
G1 X114.330 Y107.564 E0.00661
G1 X114.590 Y106.804 E0.02520
G1 X114.696 Y106.285 E0.01662
G1 X114.725 Y104.626 E0.05200
G1 X114.750 Y104.437 E0.00598
G1 X114.921 Y103.756 E0.02204
G1 X115.383 Y102.354 E0.04628
G1 X115.968 Y101.211 E0.04026
G1 X116.301 Y100.306 E0.03021
G1 X116.451 Y99.528 E0.02485
G1 X116.295 Y98.959 E0.01851
G1 X116.263 Y98.718 E0.00761
G1 X116.338 Y98.340 E0.01208
G1 X116.728 Y97.984 E0.01657
G1 X117.577 Y97.323 E0.03374
G1 X118.729 Y96.749 E0.04035
G1 X119.350 Y96.022 E0.02998
G1 X119.620 Y95.919 E0.00906
G1 X119.951 Y95.743 E0.01174
G1 X120.637 Y95.655 E0.02169
G1 X121.162 Y95.535 E0.01687
G1 X122.061 Y95.223 E0.02986
G1 X122.437 Y95.011 E0.01352
G1 X123.767 Y93.723 E0.05803
G1 X123.887 Y93.442 E0.00960
G1 X124.107 Y92.791 E0.02154
G1 X124.184 Y92.415 E0.01202
G1 X124.140 Y91.890 E0.01652
G1 X124.010 Y91.426 E0.01511
G1 X123.970 Y91.127 E0.00945
G1 X124.302 Y90.455 E0.02350
G1 X124.441 Y90.377 E0.00502
G1 X124.818 Y90.395 E0.01182
G1 X125.502 Y90.697 E0.02347
G1 X127.287 Y91.815 E0.06603
G1 X128.008 Y92.331 E0.02779
G1 X129.149 Y93.314 E0.04722
G1 X130.110 Y94.436 E0.04632
G1 X130.426 Y94.778 E0.01460
G1 X130.548 Y94.953 E0.00669
G1 X130.967 Y95.662 E0.02581
G1 X130.827 Y95.621 E0.00456
G1 X130.374 Y95.675 E0.01430
G1 X130.183 Y95.645 E0.00607
G1 X129.554 Y95.720 E0.01987
G1 X129.241 Y95.713 E0.00981
G1 X128.593 Y95.826 E0.02063
G1 X128.149 Y96.095 E0.01627
G1 X127.914 Y96.430 E0.01282
G1 X127.687 Y96.885 E0.01595
G1 X127.537 Y97.403 E0.01690
G1 X127.780 Y98.247 E0.02754
G1 X128.110 Y99.047 E0.02712
G1 X128.336 Y100.228 E0.03771
G1 X128.457 Y100.531 E0.01024
G1 X128.646 Y102.056 E0.04816
G1 X128.840 Y103.101 E0.03335
G1 X129.045 Y104.042 E0.03018
G1 X129.281 Y104.908 E0.02815
G1 X129.300 Y105.954 E0.03279
M204 S1000
G1 F8640.000
G1 X128.531 Y104.304 E-0.42050
G1 X128.378 Y103.907 E-0.09813
G1 X128.054 Y102.913 E-0.24137
G1 E-0.04000 F2100.00000
G1 Z0.800 F10800.000
G1 X129.639 Y107.086
G1 Z0.200
G1 E0.80000 F2100.00000
M204 S500
G1 F1200.000
G1 X129.018 Y106.307 E0.03126
G1 X128.182 Y104.448 E0.06387
G1 X128.023 Y104.033 E0.01395
G1 X127.530 Y102.525 E0.04975
G1 X127.440 Y101.874 E0.02061
G1 X127.286 Y101.336 E0.01755
G1 X127.131 Y100.903 E0.01442
G1 X126.678 Y100.179 E0.02676
G1 X126.200 Y99.793 E0.01928
G1 X125.635 Y99.545 E0.01933
G1 X124.641 Y99.540 E0.03118
G1 X124.151 Y99.626 E0.01559
G1 X123.821 Y99.789 E0.01153
G1 X123.536 Y100.020 E0.01151
G1 X123.194 Y100.479 E0.01796
G1 X123.064 Y100.772 E0.01005
G1 X122.896 Y101.736 E0.03067
G1 X122.396 Y103.022 E0.04326
G1 X122.251 Y104.372 E0.04258
G1 X122.306 Y104.976 E0.01903
G1 X122.421 Y105.439 E0.01493
G1 X122.739 Y106.498 E0.03468
G1 X123.017 Y108.961 E0.07772
G1 X122.909 Y109.664 E0.02229
G1 X122.533 Y110.945 E0.04188
G1 X122.417 Y112.363 E0.04459
G1 X122.467 Y112.872 E0.01602
G1 X122.656 Y113.599 E0.02358
G1 X123.024 Y114.709 E0.03666
G1 X123.320 Y115.279 E0.02012
G1 X123.345 Y115.923 E0.02020
G1 X123.307 Y116.972 E0.03293
G1 X123.044 Y118.310 E0.04276
G1 X123.018 Y118.962 E0.02046
G1 X122.904 Y119.458 E0.01595
G1 X122.713 Y119.884 E0.01463
G1 X122.391 Y121.138 E0.04059
G1 X121.973 Y122.023 E0.03070
G1 X121.841 Y122.205 E0.00705
G1 X121.531 Y121.460 E0.02528
G1 X121.457 Y121.042 E0.01334
G1 X121.422 Y120.689 E0.01112
G1 X121.404 Y119.813 E0.02746
G1 X121.306 Y119.160 E0.02070
G1 X121.438 Y118.459 E0.02238
G1 X121.532 Y118.128 E0.01078
G1 X121.558 Y117.839 E0.00910
G1 X121.528 Y117.635 E0.00648
G1 X121.537 Y117.484 E0.00474
G1 X121.279 Y115.246 E0.07061
G1 X121.438 Y114.249 E0.03168
G1 X121.477 Y113.327 E0.02894
G1 X121.522 Y112.967 E0.01137
G1 X121.558 Y112.167 E0.02509
G1 X121.606 Y111.971 E0.00633
G1 X121.564 Y111.141 E0.02607
G1 X121.465 Y110.701 E0.01413
G1 X121.427 Y110.386 E0.00994
G1 X121.026 Y109.268 E0.03724
G1 X120.913 Y108.621 E0.02061
G1 X120.902 Y107.416 E0.03776
G1 X120.972 Y105.347 E0.06491
G1 X121.019 Y104.761 E0.01845
G1 X120.918 Y103.608 E0.03629
G1 X120.857 Y103.174 E0.01374
G1 X120.572 Y102.437 E0.02477
G1 X120.067 Y101.513 E0.03302
G1 X120.024 Y101.335 E0.00574
G1 X119.737 Y100.784 E0.01950
G1 X119.008 Y100.251 E0.02833
G1 X118.382 Y100.064 E0.02048
G1 X117.804 Y100.147 E0.01832
G1 X117.602 Y100.247 E0.00706
G1 X117.332 Y100.314 E0.00871
G1 X116.513 Y101.779 E0.05262
G1 X116.363 Y102.887 E0.03505
G1 X116.388 Y103.742 E0.02683
G1 X116.262 Y104.711 E0.03063
G1 X116.062 Y105.497 E0.02544
G1 X115.915 Y105.963 E0.01531
G1 X115.731 Y106.360 E0.01374
G1 X115.053 Y107.192 E0.03364
G1 X114.806 Y107.640 E0.01605
G1 X114.686 Y107.944 E0.01024
G1 X114.546 Y108.428 E0.01580
G1 X114.493 Y109.153 E0.02279
G1 X114.521 Y109.770 E0.01935
G1 X114.623 Y110.452 E0.02163
G1 X114.426 Y111.548 E0.03493
G1 X114.258 Y112.067 E0.01708
G1 X114.062 Y113.171 E0.03517
G1 X114.049 Y113.659 E0.01531
G1 X114.024 Y113.771 E0.00357
