; generated by PrusaSlicer 2.2.0+ on 2020-08-01 at 02:11:56 UTC

; 

; external perimeters extrusion width = 0.45mm
; perimeters extrusion width = 0.45mm
; infill extrusion width = 0.45mm
; solid infill extrusion width = 0.45mm
; top infill extrusion width = 0.40mm
; first layer extrusion width = 0.42mm

M73 P0 R80
M73 Q0 S81
M201 X1000 Y1000 Z200 E5000 ; sets maximum accelerations, mm/sec^2
M203 X200 Y200 Z12 E120 ; sets maximum feedrates, mm/sec
M204 P1250 R1250 T1250 ; sets acceleration (P, T) and retract acceleration (R), mm/sec^2
M205 X8.00 Y8.00 Z0.40 E4.50 ; sets the jerk limits, mm/sec
M205 S0 T0 ; sets the minimum extruding and travel feed rate, mm/sec
M107
M862.3 P "MK3S" ; printer model check
M862.1 P0.4 ; nozzle diameter check
M115 U3.9.0 ; tell printer latest fw version
G90 ; use absolute coordinates
M83 ; extruder relative mode
M104 S215 ; set extruder temp
M140 S60 ; set bed temp
M190 S60 ; wait for bed temp
M109 S215 ; wait for extruder temp
G28 W ; home all without mesh bed level
G80 ; mesh bed leveling
G1 Y-3.0 F1000.0 ; go outside print area
G92 E0.0
G1 X60.0 E9.0 F1000.0 ; intro line
M73 Q0 S81
M73 P0 R80
G1 X100.0 E12.5 F1000.0 ; intro line
G92 E0.0
M221 S100
G21 ; set units to millimeters
G90 ; use absolute coordinates
M83 ; use relative distances for extrusion
M900 K0.06 ; Filament gcode LA 1.5
M900 K30 ; Filament gcode LA 1.0
;BEFORE_LAYER_CHANGE
G92 E0.0
;0.2


G1 E-0.80000 F2100.00000
G1 Z0.600 F10800.000
;AFTER_LAYER_CHANGE
;0.2
G1 X129.255 Y68.971
G1 Z0.200
G1 E0.80000 F2100.00000
M204 S500
G1 F1200.000
G1 X133.777 Y68.919 E0.14180
G1 X136.845 Y68.921 E0.09618
G1 X137.503 Y69.036 E0.02095
G1 X138.023 Y69.278 E0.01799
G1 X138.473 Y69.640 E0.01811
G1 X138.822 Y70.100 E0.01811
G1 X139.050 Y70.631 E0.01811
G1 X146.890 Y99.357 E0.93362
G1 X147.634 Y115.399 E0.50353
G1 X147.530 Y116.188 E0.02496
G1 X147.209 Y116.903 E0.02458
G1 X146.725 Y117.452 E0.02296
G1 X122.394 Y137.099 E0.98053
G1 X121.465 Y137.585 E0.03289
G1 X113.808 Y140.830 E0.26075
G1 X112.650 Y141.043 E0.03691
G1 X111.640 Y140.860 E0.03218
G1 X111.169 Y140.656 E0.01609
G1 X108.477 Y139.072 E0.09795
G1 X104.367 Y136.149 E0.15813
G1 X103.021 Y135.041 E0.05466
G1 X102.399 Y134.216 E0.03239
G1 X102.044 Y133.378 E0.02854
G1 X101.935 Y132.012 E0.04296
G1 X102.061 Y131.140 E0.02761
G1 X102.833 Y129.022 E0.07070
G1 X127.629 Y70.217 E2.00099
G1 X127.920 Y69.776 E0.01657
G1 X128.301 Y69.410 E0.01657
G1 X128.753 Y69.137 E0.01657
G1 X129.198 Y68.990 E0.01469
M204 S1000
G1 F8640.000
G1 X132.489 Y68.939 E-0.76000
G1 E-0.04000 F2100.00000
G1 Z0.800 F10800.000
G1 X130.749 Y72.461
G1 Z0.200
G1 E0.80000 F2100.00000
M204 S500
G1 F1200.000
G1 X135.758 Y72.461 E0.15706
G1 X135.865 Y73.549 E0.03428
G1 X136.199 Y75.042 E0.04798
G1 X136.498 Y75.988 E0.03112
G1 X136.583 Y76.524 E0.01701
G1 X136.678 Y76.913 E0.01253
G1 X136.782 Y78.126 E0.03817
G1 X136.794 Y80.684 E0.08022
G1 X136.818 Y80.843 E0.00503
G1 X136.843 Y81.756 E0.02865
G1 X136.840 Y83.313 E0.04881
G1 X136.908 Y83.919 E0.01913
G1 X137.068 Y85.038 E0.03543
G1 X137.484 Y86.767 E0.05576
G1 X137.685 Y87.718 E0.03048
G1 X138.024 Y89.139 E0.04581
G1 X138.709 Y90.563 E0.04954
G1 X138.745 Y90.683 E0.00392
G1 X139.233 Y91.833 E0.03919
G1 X139.301 Y91.908 E0.00317
G1 X140.080 Y93.342 E0.05116
G1 X140.336 Y93.889 E0.01894
G1 X141.784 Y96.731 E0.10001
G1 X141.903 Y97.049 E0.01064
G1 X142.235 Y97.780 E0.02519
G1 X142.502 Y98.451 E0.02262
G1 X143.331 Y99.849 E0.05097
G1 X144.008 Y114.935 E0.47348
G1 X143.103 Y115.208 E0.02964
G1 X140.761 Y115.329 E0.07353
G1 X140.471 Y115.445 E0.00979
G1 X140.233 Y115.475 E0.00755
G1 X139.459 Y115.785 E0.02612
G1 X138.874 Y116.172 E0.02199
G1 X138.660 Y116.474 E0.01158
G1 X138.625 Y116.466 E0.00112
G1 X138.066 Y116.915 E0.02249
G1 X137.664 Y117.152 E0.01462
G1 X137.335 Y117.553 E0.01628
G1 X137.029 Y117.660 E0.01015
G1 X136.406 Y118.093 E0.02379
G1 X135.881 Y118.832 E0.02843
G1 X135.758 Y119.223 E0.01285
G1 X135.440 Y119.908 E0.02367
G1 X134.620 Y120.979 E0.04232
G1 X134.412 Y121.449 E0.01611
G1 X134.111 Y122.000 E0.01967
G1 X133.328 Y123.135 E0.04325
G1 X132.824 Y123.648 E0.02254
G1 X131.633 Y124.583 E0.04747
G1 X130.169 Y125.337 E0.05163
G1 X129.448 Y125.639 E0.02452
G1 X128.159 Y126.297 E0.04537
G1 X126.985 Y126.750 E0.03947
G1 X126.146 Y127.240 E0.03046
G1 X125.402 Y127.537 E0.02513
G1 X124.940 Y127.793 E0.01656
G1 X123.856 Y128.312 E0.03768
G1 X123.499 Y128.434 E0.01182
G1 X122.926 Y128.702 E0.01982
G1 X122.394 Y128.905 E0.01786
G1 X121.836 Y129.603 E0.02803
G1 X121.681 Y130.381 E0.02487
G1 X121.837 Y130.906 E0.01718
G1 X122.215 Y131.821 E0.03104
G1 X121.889 Y132.159 E0.01475
G1 X121.576 Y132.695 E0.01945
G1 X121.432 Y132.878 E0.00730
G1 X121.233 Y133.387 E0.01713
G1 X120.859 Y133.810 E0.01769
G1 X120.422 Y134.152 E0.01740
G1 X120.129 Y134.298 E0.01027
G1 X119.737 Y134.383 E0.01258
G1 X118.509 Y134.541 E0.03883
G1 X118.172 Y134.504 E0.01060
G1 X117.474 Y134.748 E0.02319
G1 X116.692 Y135.271 E0.02952
G1 X115.982 Y135.424 E0.02277
G1 X115.465 Y135.615 E0.01726
G1 X114.714 Y135.938 E0.02564
G1 X113.946 Y136.593 E0.03167
G1 X112.991 Y137.301 E0.03727
G1 X112.717 Y137.438 E0.00961
G1 X112.405 Y137.202 E0.01227
G1 X112.090 Y136.909 E0.01349
G1 X111.659 Y136.645 E0.01583
G1 X111.585 Y136.532 E0.00426
G1 X110.929 Y136.076 E0.02504
G1 X110.506 Y135.317 E0.02725
G1 X110.349 Y134.833 E0.01595
G1 X109.226 Y134.186 E0.04063
G1 X108.686 Y134.075 E0.01729
G1 X108.259 Y133.944 E0.01399
G1 X107.916 Y133.782 E0.01191
G1 X107.784 Y133.698 E0.00488
G1 X107.118 Y133.403 E0.02285
G1 X106.373 Y133.184 E0.02435
G1 X105.800 Y132.713 E0.02325
G1 X105.568 Y132.401 E0.01220
G1 X105.585 Y132.237 E0.00517
G1 X106.283 Y130.402 E0.06155
G1 X106.908 Y129.588 E0.03217
G1 X107.084 Y129.321 E0.01001
G1 X109.922 Y126.836 E0.11829
G1 X111.432 Y125.635 E0.06048
G1 X111.656 Y125.337 E0.01170
G1 X111.813 Y125.170 E0.00718
G1 X111.967 Y125.153 E0.00485
G1 X112.110 Y125.171 E0.00452
G1 X112.281 Y125.240 E0.00580
G1 X112.679 Y125.290 E0.01256
G1 X113.064 Y125.373 E0.01235
G1 X113.148 Y125.409 E0.00289
G1 X113.672 Y125.534 E0.01686
G1 X113.981 Y125.655 E0.01041
G1 X114.430 Y125.749 E0.01440
G1 X115.271 Y125.797 E0.02639
G1 X115.718 Y125.651 E0.01475
G1 X116.454 Y125.128 E0.02830
G1 X117.074 Y125.430 E0.02161
G1 X117.600 Y125.564 E0.01703
G1 X118.157 Y125.532 E0.01751
G1 X118.531 Y125.396 E0.01247
G1 X118.950 Y125.094 E0.01618
G1 X119.232 Y124.716 E0.01478
G1 X119.438 Y124.708 E0.00648
G1 X120.277 Y122.861 E0.06360
G1 X120.318 Y122.186 E0.02120
G1 X120.017 Y121.506 E0.02332
G1 X120.000 Y121.402 E0.00330
G1 X120.582 Y121.246 E0.01889
G1 X120.710 Y121.191 E0.00437
G1 X121.908 Y120.920 E0.03850
G1 X122.725 Y120.513 E0.02863
G1 X123.418 Y120.215 E0.02365
G1 X124.324 Y119.911 E0.02996
G1 X124.907 Y119.381 E0.02471
G1 X125.010 Y119.170 E0.00735
G1 X125.273 Y118.868 E0.01255
G1 X125.504 Y118.327 E0.01845
G1 X125.898 Y117.684 E0.02365
G1 X127.270 Y115.788 E0.07337
G1 X127.576 Y115.413 E0.01516
G1 X128.213 Y114.750 E0.02885
G1 X129.206 Y113.997 E0.03907
G1 X130.175 Y113.371 E0.03618
G1 X130.474 Y113.142 E0.01180
G1 X130.527 Y113.125 E0.00175
G1 X132.064 Y111.912 E0.06138
G1 X132.232 Y111.706 E0.00834
G1 X132.439 Y111.542 E0.00827
G1 X132.639 Y111.392 E0.00786
G1 X132.868 Y111.260 E0.00828
G1 X133.910 Y110.469 E0.04101
G1 X134.343 Y110.190 E0.01617
G1 X134.807 Y109.948 E0.01642
G1 X135.349 Y109.592 E0.02030
G1 X136.521 Y108.905 E0.04260
G1 X137.532 Y108.394 E0.03554
G1 X137.635 Y108.372 E0.00329
G1 X138.041 Y108.172 E0.01420
G1 X138.807 Y107.279 E0.03689
G1 X138.855 Y106.584 E0.02183
G1 X138.861 Y104.723 E0.05835
G1 X138.919 Y103.720 E0.03149
G1 X138.904 Y103.214 E0.01590
G1 X138.689 Y102.675 E0.01819
G1 X138.770 Y102.337 E0.01090
G1 X138.429 Y101.884 E0.01776
G1 X137.786 Y100.098 E0.05953
G1 X137.464 Y99.339 E0.02586
G1 X136.847 Y97.702 E0.05485
G1 X136.580 Y96.238 E0.04666
G1 X136.435 Y95.048 E0.03758
G1 X136.471 Y94.827 E0.00701
G1 X136.329 Y93.777 E0.03321
G1 X136.294 Y91.987 E0.05614
G1 X136.119 Y90.779 E0.03827
G1 X135.861 Y89.527 E0.04009
G1 X135.886 Y88.849 E0.02127
G1 X136.136 Y88.782 E0.00812
G1 X136.253 Y87.295 E0.04677
G1 X136.133 Y86.958 E0.01122
G1 X135.998 Y86.408 E0.01776
G1 X135.782 Y85.802 E0.02017
G1 X135.232 Y84.053 E0.05747
G1 X134.935 Y83.266 E0.02637
G1 X134.789 Y82.774 E0.01609
G1 X134.371 Y80.645 E0.06803
G1 X133.982 Y79.479 E0.03857
G1 X133.428 Y78.476 E0.03592
G1 X133.167 Y77.855 E0.02113
G1 X132.283 Y76.836 E0.04228
G1 X132.115 Y76.468 E0.01267
G1 X132.075 Y76.233 E0.00750
G1 X131.865 Y75.938 E0.01134
G1 X131.659 Y75.518 E0.01467
G1 X131.299 Y75.005 E0.01965
G1 X131.227 Y74.940 E0.00303
G1 X131.189 Y74.304 E0.01999
G1 X131.115 Y74.078 E0.00746
G1 X130.987 Y73.348 E0.02325
G1 X130.871 Y73.037 E0.01039
G1 X130.769 Y72.516 E0.01664
M204 S1000
G1 F8640.000
G1 X134.060 Y72.480 E-0.76000
G1 E-0.04000 F2100.00000
G1 Z0.800 F10800.000
G1 X138.362 Y102.422
G1 Z0.200
G1 E0.80000 F2100.00000
M204 S500
G1 F1200.000
G1 X138.094 Y102.066 E0.01397
G1 X137.434 Y100.236 E0.06100
G1 X137.114 Y99.479 E0.02578
G1 X136.482 Y97.803 E0.05615
G1 X136.207 Y96.294 E0.04808
G1 X136.058 Y95.069 E0.03870
G1 X136.090 Y94.822 E0.00781
G1 X135.953 Y93.806 E0.03214
G1 X135.918 Y92.018 E0.05608
G1 X135.748 Y90.844 E0.03718
G1 X135.482 Y89.559 E0.04116
G1 X135.511 Y88.790 E0.02412
G1 X135.480 Y88.567 E0.00704
G1 X135.781 Y88.487 E0.00976
G1 X135.870 Y87.345 E0.03590
G1 X135.771 Y87.066 E0.00930
G1 X135.636 Y86.516 E0.01775
G1 X135.425 Y85.921 E0.01979
G1 X134.876 Y84.176 E0.05735
G1 X134.578 Y83.387 E0.02647
G1 X134.422 Y82.865 E0.01708
G1 X134.006 Y80.742 E0.06783
G1 X133.634 Y79.629 E0.03679
G1 X133.158 Y78.743 E0.03153
G1 X133.100 Y78.667 E0.00299
G1 X132.843 Y78.056 E0.02079
G1 X131.963 Y77.042 E0.04209
G1 X131.752 Y76.580 E0.01592
G1 X131.718 Y76.381 E0.00633
G1 X131.540 Y76.132 E0.00960
G1 X131.333 Y75.711 E0.01472
G1 X131.014 Y75.256 E0.01742
G1 X130.860 Y75.116 E0.00652
G1 X130.815 Y74.375 E0.02328
G1 X130.748 Y74.170 E0.00678
G1 X130.621 Y73.447 E0.02300
G1 X130.507 Y73.140 E0.01028
G1 X130.404 Y72.618 E0.01668
G1 X130.316 Y72.464 E0.00557
G1 X130.244 Y72.238 E0.00743
G1 X130.226 Y72.129 E0.00349
G1 X130.248 Y72.084 E0.00156
G1 X136.092 Y72.084 E0.18325
G1 X136.238 Y73.489 E0.04430
G1 X136.563 Y74.944 E0.04674
G1 X136.866 Y75.902 E0.03150
G1 X136.953 Y76.450 E0.01741
G1 X137.051 Y76.851 E0.01296
G1 X137.159 Y78.109 E0.03956
G1 X137.171 Y80.656 E0.07986
G1 X137.194 Y80.810 E0.00489
G1 X137.220 Y81.751 E0.02952
G1 X137.217 Y83.292 E0.04832
G1 X137.282 Y83.871 E0.01828
G1 X137.439 Y84.967 E0.03469
G1 X137.852 Y86.684 E0.05538
G1 X138.053 Y87.635 E0.03049
G1 X138.382 Y89.012 E0.04439
G1 X139.062 Y90.426 E0.04920
G1 X139.100 Y90.555 E0.00420
G1 X139.555 Y91.627 E0.03652
G1 X139.614 Y91.692 E0.00276
G1 X140.416 Y93.170 E0.05272
G1 X140.675 Y93.723 E0.01915
G1 X142.129 Y96.579 E0.10049
G1 X142.251 Y96.904 E0.01090
G1 X142.582 Y97.632 E0.02507
G1 X142.841 Y98.284 E0.02198
G1 X143.703 Y99.738 E0.05300
G1 X144.396 Y115.165 E0.48420
G1 X144.124 Y115.298 E0.00948
G1 X143.838 Y115.369 E0.00926
G1 X143.171 Y115.582 E0.02194
G1 X140.843 Y115.702 E0.07309
G1 X140.567 Y115.813 E0.00934
G1 X140.328 Y115.843 E0.00755
G1 X139.635 Y116.120 E0.02339
G1 X139.141 Y116.448 E0.01858
G1 X138.978 Y116.678 E0.00885
G1 X138.891 Y116.908 E0.00770
G1 X138.722 Y116.872 E0.00540
G1 X138.281 Y117.226 E0.01775
G1 X137.913 Y117.443 E0.01338
G1 X137.560 Y117.861 E0.01715
G1 X137.413 Y117.937 E0.00519
G1 X137.196 Y118.003 E0.00714
G1 X136.675 Y118.365 E0.01986
G1 X136.223 Y119.002 E0.02449
G1 X136.111 Y119.360 E0.01176
G1 X135.765 Y120.104 E0.02575
G1 X134.947 Y121.173 E0.04220
G1 X134.751 Y121.616 E0.01519
G1 X134.433 Y122.198 E0.02078
G1 X133.620 Y123.377 E0.04489
G1 X133.055 Y123.951 E0.02527
G1 X132.970 Y123.998 E0.00305
G1 X131.838 Y124.902 E0.04540
G1 X130.363 Y125.665 E0.05207
G1 X129.607 Y125.981 E0.02571
G1 X128.314 Y126.642 E0.04553
G1 X127.149 Y127.091 E0.03914
G1 X126.312 Y127.579 E0.03039
G1 X125.564 Y127.878 E0.02526
G1 X125.113 Y128.129 E0.01617
G1 X123.999 Y128.661 E0.03873
G1 X123.640 Y128.784 E0.01187
G1 X123.074 Y129.049 E0.01961
G1 X122.625 Y129.220 E0.01507
G1 X122.188 Y129.766 E0.02192
G1 X122.069 Y130.363 E0.01908
G1 X122.191 Y130.776 E0.01350
G1 X122.368 Y131.175 E0.01369
G1 X122.659 Y131.919 E0.02505
G1 X122.191 Y132.389 E0.02076
G1 X121.888 Y132.908 E0.01885
G1 X121.763 Y133.067 E0.00637
G1 X121.569 Y133.562 E0.01665
G1 X121.519 Y133.636 E0.00281
G1 X121.118 Y134.086 E0.01889
G1 X120.625 Y134.472 E0.01964
G1 X120.255 Y134.656 E0.01295
G1 X119.801 Y134.755 E0.01456
G1 X118.512 Y134.921 E0.04075
G1 X118.216 Y134.888 E0.00933
G1 X117.644 Y135.089 E0.01901
G1 X116.841 Y135.625 E0.03028
G1 X116.087 Y135.787 E0.02418
G1 X115.605 Y135.965 E0.01611
G1 X114.915 Y136.262 E0.02355
G1 X114.181 Y136.889 E0.03028
G1 X113.189 Y137.624 E0.03871
G1 X112.767 Y137.835 E0.01478
G1 X112.662 Y137.856 E0.00337
G1 X112.161 Y137.489 E0.01946
G1 X111.861 Y137.211 E0.01282
G1 X111.391 Y136.923 E0.01730
G1 X111.310 Y136.800 E0.00462
G1 X110.655 Y136.345 E0.02498
G1 X110.533 Y136.162 E0.00689
G1 X110.157 Y135.466 E0.02481
G1 X110.035 Y135.087 E0.01248
G1 X109.090 Y134.543 E0.03417
G1 X108.592 Y134.441 E0.01594
G1 X108.123 Y134.297 E0.01541
G1 X107.733 Y134.113 E0.01350
G1 X107.606 Y134.032 E0.00474
G1 X106.988 Y133.758 E0.02119
G1 X106.196 Y133.525 E0.02590
G1 X105.517 Y132.963 E0.02762
G1 X105.185 Y132.518 E0.01740
G1 X105.215 Y132.148 E0.01163
G1 X105.950 Y130.216 E0.06482
G1 X106.600 Y129.369 E0.03349
G1 X106.797 Y129.071 E0.01118
G1 X109.680 Y126.546 E0.12016
G1 X111.160 Y125.370 E0.05925
G1 X111.367 Y125.094 E0.01084
G1 X111.628 Y124.830 E0.01164
G1 X111.695 Y124.804 E0.00223
G1 X111.969 Y124.773 E0.00867
G1 X112.205 Y124.803 E0.00746
G1 X112.377 Y124.872 E0.00579
G1 X112.742 Y124.918 E0.01154
G1 X113.179 Y125.012 E0.01401
G1 X113.267 Y125.050 E0.00302
G1 X113.785 Y125.173 E0.01667
G1 X114.089 Y125.292 E0.01025
G1 X114.480 Y125.375 E0.01252
G1 X115.221 Y125.416 E0.02327
G1 X115.549 Y125.309 E0.01081
G1 X116.166 Y124.883 E0.02353
G1 X116.298 Y124.747 E0.00595
G1 X116.394 Y124.680 E0.00366
G1 X117.204 Y125.074 E0.02824
G1 X117.637 Y125.184 E0.01400
G1 X118.080 Y125.159 E0.01394
G1 X118.353 Y125.060 E0.00909
G1 X118.682 Y124.822 E0.01273
G1 X119.037 Y124.347 E0.01860
G1 X119.191 Y124.341 E0.00483
G1 X119.905 Y122.769 E0.05413
G1 X119.936 Y122.251 E0.01626
G1 X119.738 Y121.779 E0.01607
G1 X119.649 Y121.621 E0.00567
G1 X119.595 Y121.268 E0.01120
G1 X119.638 Y121.162 E0.00358
G1 X119.746 Y121.080 E0.00428
G1 X120.457 Y120.889 E0.02308
G1 X120.592 Y120.831 E0.00460
G1 X121.780 Y120.562 E0.03819
G1 X122.566 Y120.171 E0.02753
G1 X123.283 Y119.862 E0.02446
G1 X124.129 Y119.578 E0.02797
G1 X124.600 Y119.150 E0.01997
G1 X124.693 Y118.960 E0.00664
G1 X124.949 Y118.665 E0.01224
G1 X125.168 Y118.153 E0.01746
G1 X125.584 Y117.474 E0.02497
G1 X126.971 Y115.559 E0.07416
G1 X127.293 Y115.163 E0.01598
G1 X127.962 Y114.467 E0.03026
G1 X128.990 Y113.688 E0.04045
G1 X129.958 Y113.062 E0.03615
G1 X130.296 Y112.803 E0.01336
G1 X130.346 Y112.787 E0.00166
G1 X131.798 Y111.642 E0.05796
G1 X131.966 Y111.436 E0.00832
G1 X132.208 Y111.244 E0.00972
G1 X132.432 Y111.077 E0.00874
G1 X132.659 Y110.946 E0.00824
G1 X133.693 Y110.160 E0.04071
G1 X134.154 Y109.864 E0.01716
G1 X134.616 Y109.622 E0.01636
G1 X135.150 Y109.272 E0.02001
G1 X136.340 Y108.574 E0.04327
G1 X137.405 Y108.036 E0.03742
G1 X137.510 Y108.013 E0.00336
G1 X137.806 Y107.868 E0.01033
G1 X138.440 Y107.129 E0.03054
G1 X138.478 Y106.571 E0.01753
G1 X138.484 Y104.712 E0.05829
G1 X138.541 Y103.715 E0.03130
G1 X138.529 Y103.291 E0.01330
G1 X138.323 Y102.773 E0.01748
G1 X138.303 Y102.668 E0.00337
G1 X138.348 Y102.480 E0.00605
M204 S1000
G1 X137.954 Y102.507 F10800.000
M204 S500
G1 F1200.000
G1 X137.758 Y102.247 E0.01018
G1 X137.083 Y100.373 E0.06246
G1 X136.763 Y99.619 E0.02569
G1 X136.117 Y97.904 E0.05746
G1 X135.834 Y96.351 E0.04950
G1 X135.682 Y95.099 E0.03955
G1 X135.709 Y94.817 E0.00887
G1 X135.576 Y93.835 E0.03106
G1 X135.541 Y92.049 E0.05603
G1 X135.376 Y90.910 E0.03609
G1 X135.104 Y89.590 E0.04224
